!!!!SEGMENT: pl-cz--iii-882--002_brykner-jerzy--completorium-c-in-te-domine-speravi.krn
!!!cenid: 17xx:862
!!!COM: Brykner, Jerzy
!!!COM-rismID: pe30025739
!!!CDT: 1705-1760
!!!CNT: Polish
!!!OPR: Completorium C
!!!OTL: In te Domine speravi
!!!OMV: 002
!!!PDT:
!!!AGN: Completorium
!!!SMS-siglum: PL-CZ
!!!SMS-shelfmark: III-882
!!!SMS-shelfwork: 001-002 M
!!!SMS-variant:
!!!SMS-altvar:
!!!NIFC-rismSourceID: 300033576
!!!NIFC-islandoraID: pl-cz:41423
!!!URL-pdf-islandora: https://repozytorium.nifc.pl/islandora/object/pl-cz%3A41423/datastream/PDF/view
!!!URL-scan:
!!!ONB-nifc: UWAGA: części Completorium: Cum invocarem, In te Domine speravi, Qui habitat,
!!!AIN: 1 alto 1 bass 1 organ 1 tenor 2 violn 1 vox
!!!key:
**kern	**fba	**kern	**dynam	**kern	**kern	**text	**kern	**kern	**text	**kern	**text
*part7	*	*part6	*part6	*part5	*part4	*	*part3	*part2	*	*part1	*part1
*	*	*group2	*	*group2	*group1	*	*group1	*group1	*	*group1	*
*staff7	*	*staff6	*	*staff5	*staff4	*	*staff3	*staff2	*	*staff1	*staff1
*Iorgan	*	*Ivioln	*	*Ivioln	*Ibass	*	*Itenor	*Ialto	*	*Ivox	*
*I"Organo.	*	*I"Violino Secundo.	*	*I"Violino Primo.	*I"(Basso)	*	*I"(Tenor)	*I"(Alto)	*	*I"Canto.	*
*I'org	*	*I'vl 2	*	*I'vl 1	*I'B	*	*I'T	*I'A	*	*I'S	*
*clefF4	*	*clefG2	*	*clefG2	*clefF4	*	*clefC4	*clefC3	*	*clefC1	*
*k[f#]	*	*k[f#]	*	*k[f#]	*k[f#]	*	*k[f#]	*k[f#]	*	*k[f#]	*
*G:	*	*G:	*	*G:	*G:	*	*G:	*G:	*	*G:	*
*M4/4	*	*M4/4	*	*M4/4	*M4/4	*	*M4\4	*M4/4	*	*M4/4	*
*met(c)	*	*met(c)	*	*met(c)	*met(c)	*	*met(c)	*met(c)	*	*met(c)	*
=1	=1	=1	=1	=1	=1	=1	=1	=1	=1	=1	=1
!LO:TX:t=P:problem=mixed beam	!	!	!	!	!LO:TX:a:t=P:problem=nazwa głosu wzięta z karty tytułowej	!	!LO:TX:a:t=P:problem=nazwa głosu wzięta z karty tytułowej	!LO:TX:a:t=P:problem=nazwa głosu wzięta z karty tytułowej	!	!	!
!LO:TX:b:B:t=In te Domine.	!	!LO:TX:b:t=In te Domine.	!	!LO:TX:a:t=P:problem=brak partii	!LO:TX:a:t=P:problem=niekompletna partia - tylko fragmenty końcowych taktów	!	!LO:TX:a:t=P:problem=brak partii	!LO:TX:a:t=P:problem=niekompletna partia - tylko ostatnie 5,5 taktu	!	!	!
8GG/L	.	8g/L	.	1ryy	1ryy	.	1ryy	1ryy	.	8g\	In
!LO:TX:a:B:t=Solo	!	!	!	!	!	!	!	!	!	!	!
8G\	.	8b/	.	.	.	.	.	.	.	16dd\LL	te
.	.	.	.	.	.	.	.	.	.	16ee\JJ	.
8F#\	6	8a/	.	.	.	.	.	.	.	16dd\	Do-
.	.	.	.	.	.	.	.	.	.	16cc\	-mi-
8D\J	.	8f#/J	.	.	.	.	.	.	.	16b\	-ne
.	.	.	.	.	.	.	.	.	.	16a\	spe-
!LO:TX:t=P:problem=mixed beam	!	!	!	!	!	!	!	!	!	!	!
16G\LL	.	16g/LL	.	.	.	.	.	.	.	16g/LL	-ra-
16GG/	.	16G/	.	.	.	.	.	.	.	16f#/JJ	.
16AA/	.	16A/	.	.	.	.	.	.	.	8g/	-vi
16BB/JJ	.	16B/JJ	.	.	.	.	.	.	.	.	.
16C\LL	.	16c/LL	.	.	.	.	.	.	.	4r	.
16D\	.	16d/	.	.	.	.	.	.	.	.	.
16E\	.	16e/	.	.	.	.	.	.	.	.	.
16F#\JJ	.	16f#/JJ	.	.	.	.	.	.	.	.	.
=2	=2	=2	=2	=2	=2	=2	=2	=2	=2	=2	=2
8G\L	.	8g/L	.	1ryy	1ryy	.	1ryy	1ryy	.	8r	.
8G\	.	8b/	.	.	.	.	.	.	.	8g\	non
8G\	.	8b/	.	.	.	.	.	.	.	8b\	non
8B\J	6	8g/J	.	.	.	.	.	.	.	8dd\	con-
8c\L	.	8g/L	.	.	.	.	.	.	.	8ee\	-fun-
8A\	.	8a/	.	.	.	.	.	.	.	16dd\LL	-dar
.	.	.	.	.	.	.	.	.	.	16cc\JJ	.
8B\	6	8g/	.	.	.	.	.	.	.	8dd\	in
8G\J	.	8g/J	.	.	.	.	.	.	.	16cc\LL	ae-
.	.	.	.	.	.	.	.	.	.	16b\JJ	.
!	!	!	!	!	!	!	!	!	!	!LO:LB:g=original	!
=3	=3	=3	=3	=3	=3	=3	=3	=3	=3	=3	=3
.	.	.	.	.	.	.	.	.	.	8qqdd/	.
*	*	*	*	*	*	*	*	*	*	*2\right	*
8A\L	7	4g/	.	1ryy	1ryy	.	1ryy	1ryy	.	2cc\	-ter-
8A\	.	.	.	.	.	.	.	.	.	.	.
8D\	7	4f#/	.	.	.	.	.	.	.	.	.
8D\J	.	.	.	.	.	.	.	.	.	.	.
*	*	*Xtuplet	*	*	*	*	*	*	*	*	*
8G\L	.	24g/LL	.	.	.	.	.	.	.	4b\	-num
.	.	24a/	.	.	.	.	.	.	.	.	.
.	.	24b/JJ	.	.	.	.	.	.	.	.	.
8B\	6	24b\LL	.	.	.	.	.	.	.	.	.
.	.	24cc\	.	.	.	.	.	.	.	.	.
.	.	24dd\JJ	.	.	.	.	.	.	.	.	.
8A\	6	24cc\LL	.	.	.	.	.	.	.	4r	.
.	.	24dd\	.	.	.	.	.	.	.	.	.
.	.	24ee\JJ	.	.	.	.	.	.	.	.	.
8F#\J	6	16dd\LL	.	.	.	.	.	.	.	.	.
.	.	16dd\JJ	.	.	.	.	.	.	.	.	.
=4	=4	=4	=4	=4	=4	=4	=4	=4	=4	=4	=4
!LO:TX:a:B:t=Tutti	!	!	!	!	!	!	!	!	!	!	!
4G\	.	8dd\L	.	1ryy	1ryy	.	1ryy	1ryy	.	4.dd\	in
.	.	8gg\J	.	.	.	.	.	.	.	.	.
8F#\L	6	8aa\L	.	.	.	.	.	.	.	.	.
8D\J	.	16gg\L	.	.	.	.	.	.	.	16cc\LL	te
.	.	16ff#\JJ	.	.	.	.	.	.	.	16dd\JJ	.
!LO:TX:t=P:problem=mixed beam	!	!LO:LB:g=original	!	!	!	!	!	!	!	!	!
8.G\L	.	8gg\L	.	.	.	.	.	.	.	8.b\	Do-
.	.	16dd\L	.	.	.	.	.	.	.	.	.
16GG/Jk	.	16cc\JJ	.	.	.	.	.	.	.	16a\	-mi-
8GG/L	.	8b\L	.	.	.	.	.	.	.	8g\	-ne
8BB/J	.	8dd\J	.	.	.	.	.	.	.	8dd\	spe-
!LO:LB:g=original	!	!	!	!	!	!	!	!	!	!	!
=5	=5	=5	=5	=5	=5	=5	=5	=5	=5	=5	=5
8C/L	5 6	8ee\L	.	1ryy	1ryy	.	1ryy	1ryy	.	4ee\	-ra-
8AA/	.	8ee\	.	.	.	.	.	.	.	.	.
8D/	.	8ff#\	.	.	.	.	.	.	.	8dd\L	.
8DD/J	.	8ff#\J	.	.	.	.	.	.	.	8cc\J	.
!LO:TX:t=P:problem=mixed beam	!	!LO:TX:t=P:problem=mixed beam	!	!	!	!	!	!	!	!	!
8GG/L	.	8gg\L	.	.	.	.	.	.	.	4b\	-vi
8G\	.	8b/	.	.	.	.	.	.	.	.	.
!LO:TX:a:B:t=Solo	!	!	!	!	!	!	!	!	!	!	!
8G\	.	8b/	.	.	.	.	.	.	.	8b\	non
8G\J	.	8b/J	.	.	.	.	.	.	.	16cc\LL	con-
.	.	.	.	.	.	.	.	.	.	16dd\JJ	.
=6	=6	=6	=6	=6	=6	=6	=6	=6	=6	=6	=6
8F#\L	.	8a/L	.	1ryy	1ryy	.	1ryy	1ryy	.	8a\	-fun-
8F#\	6	8a/	.	.	.	.	.	.	.	8d/	-dar
8G\	.	8b/	.	.	.	.	.	.	.	8dd\	in
8G\J	.	8b/J	.	.	.	.	.	.	.	8b\	ae-
8E\L	7	8g/L	.	.	.	.	.	.	.	32a\LLL	-ter-
.	.	.	.	.	.	.	.	.	.	32g\JJ	.
.	.	.	.	.	.	.	.	.	.	8.f#\J	.
8E\	.	8g/	.	.	.	.	.	.	.	.	.
8A\	.	8g/	.	.	.	.	.	.	.	4g\	.
8A\J	7 #	8g/J	.	.	.	.	.	.	.	.	.
=7	=7	=7	=7	=7	=7	=7	=7	=7	=7	=7	=7
!	!	!LO:TX:t=P:problem=mixed beam	!	!	!	!	!	!	!	!	!
8D\L	.	16f#/LL	.	1ryy	1ryy	.	1ryy	1ryy	.	8f#/	-num.
.	.	16dd\	.	.	.	.	.	.	.	.	.
!LO:TX:a:B:t=Tutti	!	!	!	!	!	!	!	!	!	!	!
8D\	.	16dd\	.	.	.	.	.	.	.	8dd\	non
.	.	16dd\JJ	.	.	.	.	.	.	.	.	.
8F#\	.	16dd\LL	.	.	.	.	.	.	.	8dd\	non
.	.	16dd\	.	.	.	.	.	.	.	.	.
8A\J	#	16cc#X\	.	.	.	.	.	.	.	8ee\	con-
.	.	16cc#\JJ	.	.	.	.	.	.	.	.	.
!	!	!	!	!	!	!	!	!	!	!LO:LB:g=original	!
8d\L	.	16dd\LL	.	.	.	.	.	.	.	8ff#\	-fun-
.	.	16dd\	.	.	.	.	.	.	.	.	.
8D\J	.	16dd\	.	.	.	.	.	.	.	8ff#\	-dar
.	.	16dd\JJ	.	.	.	.	.	.	.	.	.
8d\L	.	16ff#\LL	.	.	.	.	.	.	.	8ff#\	in
.	.	16ff#\	.	.	.	.	.	.	.	.	.
!LO:TX:a:t=P:problem=krzyżyk na 4 polu	!	!	!	!	!	!	!	!	!	!	!
8B\J	.	16ee\	.	.	.	.	.	.	.	8ee\	ae-
.	.	16ee\JJ	.	.	.	.	.	.	.	.	.
=8	=8	=8	=8	=8	=8	=8	=8	=8	=8	=8	=8
!LO:TX:t=P:problem=mixed beam	!	!	!	!	!	!	!	!	!	!	!
8d\L	.	8ff#\L	.	1ryy	1ryy	.	1ryy	1ryy	.	8ff#\	-ter-
8D/J	.	8ff#\J	.	.	.	.	.	.	.	8ff#\	-num
8d\L	.	16ff#\LL	.	.	.	.	.	.	.	8ff#\	in
.	.	16ff#\	.	.	.	.	.	.	.	.	.
8e\J	.	16ee\	.	.	.	.	.	.	.	8gg\	jus-
.	.	16ee\JJ	.	.	.	.	.	.	.	.	.
!	!	!LO:PB:g=original	!	!	!	!	!	!	!	!	!
8c#X\L	6 5	16ee\LL	.	.	.	.	.	.	.	8ee\	-ti-
.	.	16ee\	.	.	.	.	.	.	.	.	.
8d\	.	16dd\	.	.	.	.	.	.	.	16ff#\	-ti-
.	.	16dd\JJ	.	.	.	.	.	.	.	16ff#\	-a
8B\	6 5	16dd\LL	.	.	.	.	.	.	.	8dd\	tu-
.	.	16dd\	.	.	.	.	.	.	.	.	.
8c#X\J	.	16a\	.	.	.	.	.	.	.	8ee\	-a
.	.	16a\JJ	.	.	.	.	.	.	.	.	.
=9	=9	=9	=9	=9	=9	=9	=9	=9	=9	=9	=9
8A\L	6 5	16cc#X\LL	.	1ryy	1ryy	.	1ryy	1ryy	.	8cc#X\	li-
.	.	16cc#\	.	.	.	.	.	.	.	.	.
8B\	.	16dd\	.	.	.	.	.	.	.	16dd\	-be-
.	.	16dd\JJ	.	.	.	.	.	.	.	16dd\	-ra
8G\	6 5	16b\LL	.	.	.	.	.	.	.	8dd\	li-
.	.	16b\	.	.	.	.	.	.	.	.	.
8A\J	#	16cc#\	.	.	.	.	.	.	.	16cc#\	-be-
.	.	16cc#\JJ	.	.	.	.	.	.	.	16cc#\	-ra
4D/	.	16a\LL	.	.	.	.	.	.	.	2ee\	me
.	.	16a\	.	.	.	.	.	.	.	.	.
.	.	16dd\	.	.	.	.	.	.	.	.	.
.	.	16dd\JJ	.	.	.	.	.	.	.	.	.
4BB/	6	16dd\LL	.	.	.	.	.	.	.	.	.
.	.	16dd\	.	.	.	.	.	.	.	.	.
.	.	16dd\	.	.	.	.	.	.	.	.	.
.	.	16dd\JJ	.	.	.	.	.	.	.	.	.
!LO:LB:g=original	!	!	!	!	!	!	!	!	!	!	!
=10	=10	=10	=10	=10	=10	=10	=10	=10	=10	=10	=10
4AA/	#	16ee\LL	.	1ryy	1ryy	.	1ryy	1ryy	.	4cc#X\	li-
.	.	16ee\	.	.	.	.	.	.	.	.	.
.	.	16ee\	.	.	.	.	.	.	.	.	.
.	.	16ee\JJ	.	.	.	.	.	.	.	.	.
4D/	.	16ff#\LL	.	.	.	.	.	.	.	2dd\	.
.	.	16ff#\	.	.	.	.	.	.	.	.	.
.	.	16ff#\	.	.	.	.	.	.	.	.	.
.	.	16ff#\JJ	.	.	.	.	.	.	.	.	.
*	*	*2\right	*	*	*	*	*	*	*	*	*
2AA/	4	2ee\	.	.	.	.	.	.	.	.	.
.	#	.	.	.	.	.	.	.	.	8cc#\	-be-
.	.	.	.	.	.	.	.	.	.	8cc#\	-ra
=11	=11	=11	=11	=11	=11	=11	=11	=11	=11	=11	=11
8D/L	.	8ff#\L	.	1ryy	1ryy	.	1ryy	1ryy	.	4dd\	me.
!LO:TX:a:B:t=Solo	!	!	!	!	!	!	!	!	!	!	!
8D/	.	16dd\L	.	.	.	.	.	.	.	.	.
.	.	16cc#X\JJ	.	.	.	.	.	.	.	.	.
8D/	.	24dd\LL	.	.	.	.	.	.	.	4r	.
.	.	24ee\	.	.	.	.	.	.	.	.	.
.	.	24ff#\JJ	.	.	.	.	.	.	.	.	.
8AA/J	#	24ee\LL	.	.	.	.	.	.	.	.	.
.	.	24ff#\	.	.	.	.	.	.	.	.	.
.	.	24gg\JJ	.	.	.	.	.	.	.	.	.
!	!	!LO:LB:g=original	!	!	!	!	!	!	!	!	!
.	.	8qqgg/	.	.	.	.	.	.	.	.	.
!LO:TX:t=P:problem=mixed beam	!	!	!	!	!	!	!	!	!	!	!
8D/L	.	16ff#\LL	.	.	.	.	.	.	.	2r	.
.	.	16ee#X\J	.	.	.	.	.	.	.	.	.
8D/	.	[8ff#\J	.	.	.	.	.	.	.	.	.
8D/	.	24ff#\LL]	.	.	.	.	.	.	.	.	.
.	.	24gg\	.	.	.	.	.	.	.	.	.
.	.	24aa\JJ	.	.	.	.	.	.	.	.	.
8A\J	#	24gg\LL	.	.	.	.	.	.	.	.	.
.	.	24aa\	.	.	.	.	.	.	.	.	.
.	.	24bb\JJ	.	.	.	.	.	.	.	.	.
!	!	!	!	!	!	!	!	!	!	!LO:LB:g=original	!
=12	=12	=12	=12	=12	=12	=12	=12	=12	=12	=12	=12
8F#\L	6	16aa\LL	.	1ryy	1ryy	.	1ryy	1ryy	.	00r	.
.	.	16ff#\	.	.	.	.	.	.	.	.	.
8E\	.	16gg\	.	.	.	.	.	.	.	.	.
.	.	16ee\JJ	.	.	.	.	.	.	.	.	.
8D\	.	16ff#\LL	.	.	.	.	.	.	.	.	.
.	.	16dd\	.	.	.	.	.	.	.	.	.
8G\J	.	16cc#X\	.	.	.	.	.	.	.	.	.
.	.	16dd\JJ	.	.	.	.	.	.	.	.	.
!LO:TX:t=P:problem=mixed beam	!	!	!	!	!	!	!	!	!	!	!
8A\L	.	4a\	.	.	.	.	.	.	.	.	.
8A\	4	.	.	.	.	.	.	.	.	.	.
8AA/	.	4eeT\	.	.	.	.	.	.	.	.	.
8AA/J	#	.	.	.	.	.	.	.	.	.	.
=13	=13	=13	=13	=13	=13	=13	=13	=13	=13	=13	=13
4D/	.	8dd\L	.	1ryy	1ryy	.	1ryy	1ryy	.	.	.
.	.	8a\J	.	.	.	.	.	.	.	.	.
8r	.	8d/L	.	.	.	.	.	.	.	.	.
8D/	.	8a/J	.	.	.	.	.	.	.	.	.
*	*	*	*below	*	*	*	*	*	*	*	*
!	!	!	!LO:DY:t=p&colon;	!	!	!	!	!	!	!	!
8D\L	.	8a/L	p	.	.	.	.	.	.	.	.
8D\	.	8a/	.	.	.	.	.	.	.	.	.
8E\	6\	8g/	.	.	.	.	.	.	.	.	.
8E\J	.	8g/J	.	.	.	.	.	.	.	.	.
=14	=14	=14	=14	=14	=14	=14	=14	=14	=14	=14	=14
8F#\L	6	8a/L	.	1ryy	1ryy	.	1ryy	1ryy	.	.	.
8F#\	.	8a/	.	.	.	.	.	.	.	.	.
8F#\	.	8a/	.	.	.	.	.	.	.	.	.
8F#\J	.	8a/J	.	.	.	.	.	.	.	.	.
8D\L	.	8f#/L	.	.	.	.	.	.	.	.	.
8D\	.	8f#/	.	.	.	.	.	.	.	.	.
8D\	.	8f#/	.	.	.	.	.	.	.	.	.
8D\J	.	8f#/J	.	.	.	.	.	.	.	.	.
=15	=15	=15	=15	=15	=15	=15	=15	=15	=15	=15	=15
8D\L	.	8f#/L	.	1ryy	1ryy	.	1ryy	1ryy	.	.	.
8D\	.	8f#/	.	.	.	.	.	.	.	.	.
8D#X\	6	8f#/	.	.	.	.	.	.	.	.	.
8D#\J	.	8f#/J	.	.	.	.	.	.	.	.	.
!LO:LB:g=original	!	!	!	!	!	!	!	!	!	!	!
8E\L	.	8g/L	.	.	.	.	.	.	.	.	.
8E\	.	8g/	.	.	.	.	.	.	.	.	.
8E\	.	8g/	.	.	.	.	.	.	.	.	.
8E\J	.	8g/J	.	.	.	.	.	.	.	.	.
!	!	!LO:LB:g=original	!	!	!	!	!	!	!	!	!
=16	=16	=16	=16	=16	=16	=16	=16	=16	=16	=16	=16
8.E\L	.	8g/L	.	1ryy	1ryy	.	1ryy	1ryy	.	00r	.
.	.	16r	.	.	.	.	.	.	.	.	.
16E\K	.	16g/Jk	.	.	.	.	.	.	.	.	.
8.A\	.	8e/L	.	.	.	.	.	.	.	.	.
.	.	16r	.	.	.	.	.	.	.	.	.
16A\Jk	.	16e/Jk	.	.	.	.	.	.	.	.	.
8G\L	6	8e/L	.	.	.	.	.	.	.	.	.
8A\	.	8a/	.	.	.	.	.	.	.	.	.
8B\	#	8f#/	.	.	.	.	.	.	.	.	.
8A\J	.	8f#/J	.	.	.	.	.	.	.	.	.
=17	=17	=17	=17	=17	=17	=17	=17	=17	=17	=17	=17
8G\L	.	8e/L	.	1ryy	1ryy	.	1ryy	1ryy	.	.	.
8F#\J	.	8d#X/	.	.	.	.	.	.	.	.	.
!LO:TX:t=P:problem=mixed beam	!	!	!	!	!	!	!	!	!	!	!
8E\L	.	8e/	.	.	.	.	.	.	.	.	.
8AA/J	.	8e/J	.	.	.	.	.	.	.	.	.
8BB/L	4	8e/L	.	.	.	.	.	.	.	.	.
8BB/	.	8e/	.	.	.	.	.	.	.	.	.
8BB/	#	8e/	.	.	.	.	.	.	.	.	.
8BB/J	.	8d#X/J	.	.	.	.	.	.	.	.	.
=18	=18	=18	=18	=18	=18	=18	=18	=18	=18	=18	=18
!	!	!LO:TX:t=P:problem=mixed beam	!LO:DY:t=f.	!	!	!	!	!	!	!	!
8E\L	.	8e/L	f	1ryy	1ryy	.	1ryy	1ryy	.	.	.
8E\	.	16ee\L	.	.	.	.	.	.	.	.	.
.	.	16dd#X\JJ	.	.	.	.	.	.	.	.	.
8E\	.	24ee\LL	.	.	.	.	.	.	.	.	.
.	.	24ff#\	.	.	.	.	.	.	.	.	.
.	.	24gg\JJ	.	.	.	.	.	.	.	.	.
8D#X\J	6	24ff#\LL	.	.	.	.	.	.	.	.	.
.	.	24gg\	.	.	.	.	.	.	.	.	.
.	.	24aa\JJ	.	.	.	.	.	.	.	.	.
8E\L	.	16gg\LL	.	.	.	.	.	.	.	.	.
.	.	16ff#\J	.	.	.	.	.	.	.	.	.
8E\	.	[8gg\J	.	.	.	.	.	.	.	.	.
8E\	.	24gg\LL]	.	.	.	.	.	.	.	.	.
.	.	24aa\	.	.	.	.	.	.	.	.	.
.	.	24bb\JJ	.	.	.	.	.	.	.	.	.
8B\J	#	24aa\LL	.	.	.	.	.	.	.	.	.
.	.	24bb\	.	.	.	.	.	.	.	.	.
.	.	24cccn\JJ	.	.	.	.	.	.	.	.	.
=19	=19	=19	=19	=19	=19	=19	=19	=19	=19	=19	=19
8G\L	.	16bb\LL	.	1ryy	1ryy	.	1ryy	1ryy	.	.	.
.	.	16gg\	.	.	.	.	.	.	.	.	.
8F#\	.	16aa\	.	.	.	.	.	.	.	.	.
.	.	16ff#\JJ	.	.	.	.	.	.	.	.	.
8E\	.	16gg\LL	.	.	.	.	.	.	.	.	.
.	.	16ee\	.	.	.	.	.	.	.	.	.
8G\J	.	16dd#X\	.	.	.	.	.	.	.	.	.
.	.	16ee\JJ	.	.	.	.	.	.	.	.	.
!LO:TX:t=P:problem=mixed beam	!	!LO:LB:g=original	!	!	!	!	!	!	!	!	!
8B\L	4	4b\	.	.	.	.	.	.	.	.	.
8B\	.	.	.	.	.	.	.	.	.	.	.
8BB/	#	4ff#t\	.	.	.	.	.	.	.	.	.
8BB/J	.	.	.	.	.	.	.	.	.	.	.
=20	=20	=20	=20	=20	=20	=20	=20	=20	=20	=20	=20
!	!	!LO:TX:t=P:problem=mixed beam	!	!	!	!	!	!	!	!	!
8E\L	.	8ee\L	.	1ryy	1ryy	.	1ryy	1ryy	.	0r	.
8E\	.	8e/J	.	.	.	.	.	.	.	.	.
8G\	6	8b\L	.	.	.	.	.	.	.	.	.
8A\J	.	8cc\J	.	.	.	.	.	.	.	.	.
!LO:LB:g=original	!	!	!	!	!	!	!	!	!	!	!
8B\L	#	8f#/L	.	.	.	.	.	.	.	.	.
8B\	.	8f#/	.	.	.	.	.	.	.	.	.
8G\	6	8e/	.	.	.	.	.	.	.	.	.
8G\J	.	8e/J	.	.	.	.	.	.	.	.	.
=21	=21	=21	=21	=21	=21	=21	=21	=21	=21	=21	=21
!LO:TX:t=P:problem=mixed beam	!	!	!	!	!	!	!	!	!	!	!
8A\L	.	8e/L	.	1ryy	1ryy	.	1ryy	1ryy	.	.	.
8AA/	.	8e/	.	.	.	.	.	.	.	.	.
8G\	6	8e/	.	.	.	.	.	.	.	.	.
8GG/J	.	8e/J	.	.	.	.	.	.	.	.	.
8F#\L	6\	8d#X/L	.	.	.	.	.	.	.	.	.
8E\J	.	8e/	.	.	.	.	.	.	.	.	.
8D#X/L	6 5	8f#/	.	.	.	.	.	.	.	.	.
8BB/J	.	8d#/J	.	.	.	.	.	.	.	.	.
=22	=22	=22	=22	=22	=22	=22	=22	=22	=22	=22-	=22
8E\L	.	8e/L	.	1ryy	1ryy	.	1ryy	1ryy	.	2r	.
8E\	.	8g/J	.	.	.	.	.	.	.	.	.
8E\	.	16g\LL	.	.	.	.	.	.	.	.	.
.	.	16b\	.	.	.	.	.	.	.	.	.
!	!	!	!LO:DY:t=f.	!	!	!	!	!	!	!	!
8E\J	.	16ee\	f	.	.	.	.	.	.	.	.
.	.	16gg\JJ	.	.	.	.	.	.	.	.	.
4E\	.	16bb\LL	.	.	.	.	.	.	.	4ee\	Es-
.	.	16gg\	.	.	.	.	.	.	.	.	.
.	.	16gg\	.	.	.	.	.	.	.	.	.
!LO:TX:a:B:t=Tutti	!	!	!	!	!	!	!	!	!	!	!
.	.	16gg\JJ	.	.	.	.	.	.	.	.	.
4e\	.	16gg\LL	.	.	.	.	.	.	.	4ee\	-to
.	.	16gg\	.	.	.	.	.	.	.	.	.
.	.	16gg\	.	.	.	.	.	.	.	.	.
.	.	16gg\JJ	.	.	.	.	.	.	.	.	.
=23	=23	=23	=23	=23	=23	=23	=23	=23	=23	=23	=23
8d#X\L	6	16ff#\LL	.	1ryy	1ryy	.	1ryy	1ryy	.	8ff#\	mi-
.	.	16ff#\	.	.	.	.	.	.	.	.	.
8B\	#	16dd#X\	.	.	.	.	.	.	.	8b\	-hi
.	.	16dd#\JJ	.	.	.	.	.	.	.	.	.
8B\	.	16dd#\LL	.	.	.	.	.	.	.	8r	.
.	.	16dd#\	.	.	.	.	.	.	.	.	.
8A\J	.	16dd#\	.	.	.	.	.	.	.	8cc\	in
.	.	16dd#\JJ	.	.	.	.	.	.	.	.	.
8G\L	6\	8ee\L	.	.	.	.	.	.	.	8b\	De-
8F#\	.	8ee\	.	.	.	.	.	.	.	8dd#X\	-um
8E\	.	8ee\	.	.	.	.	.	.	.	8ee\	pro-
8D\J	6	8b\J	.	.	.	.	.	.	.	8ff#\	-tec-
!	!	!LO:LB:g=original	!	!	!	!	!	!	!	!	!
=24	=24	=24	=24	=24	=24	=24	=24	=24	=24	=24	=24
2C/	7	4b/	.	1ryy	1ryy	.	1ryy	1ryy	.	2ee\	-to-
.	6	4a/	.	.	.	.	.	.	.	.	.
!LO:TX:t=P:problem=mixed beam	!	!	!	!	!	!	!	!	!	!	!
8BB/L	#	4b/	.	.	.	.	.	.	.	4dd#X\	-rem
8B\	.	.	.	.	.	.	.	.	.	.	.
8B\	n	4r	.	.	.	.	.	.	.	4r	.
8A\J	.	.	.	.	.	.	.	.	.	.	.
=25	=25	=25	=25	=25	=25	=25	=25	=25	=25	=25	=25
8G#X\L	6	8e/L	.	1ryy	1ryy	.	1ryy	1ryy	.	0r	.
8G#\	.	8e/	.	.	.	.	.	.	.	.	.
8E\	#	8e/	.	.	.	.	.	.	.	.	.
8E\J	.	8e/J	.	.	.	.	.	.	.	.	.
8E\L	.	8e/L	.	.	.	.	.	.	.	.	.
8E\J	.	8e/	.	.	.	.	.	.	.	.	.
!LO:LB:g=original	!	!	!	!	!	!	!	!	!	!	!
8G#X\L	6	8e/	.	.	.	.	.	.	.	.	.
8G#\J	.	8e/J	.	.	.	.	.	.	.	.	.
=26	=26	=26	=26	=26	=26	=26	=26	=26	=26	=26	=26
!LO:TX:t=P:problem=mixed beam	!	!	!	!	!	!	!	!	!	!	!
8A\L	.	16e/LL	.	1ryy	1ryy	.	1ryy	1ryy	.	.	.
.	.	16a/	.	.	.	.	.	.	.	.	.
8AA/	.	16cc/	.	.	.	.	.	.	.	.	.
.	.	16ee/JJ	.	.	.	.	.	.	.	.	.
8AA/	#	16aa\LL	.	.	.	.	.	.	.	.	.
.	.	16aa\	.	.	.	.	.	.	.	.	.
8AA/J	.	16aa\	.	.	.	.	.	.	.	.	.
.	.	16aa\JJ	.	.	.	.	.	.	.	.	.
8C#X/L	6	8aa\L	.	.	.	.	.	.	.	.	.
8C#/	.	16cc#X\L	.	.	.	.	.	.	.	.	.
.	.	16dd\JJ	.	.	.	.	.	.	.	.	.
8C#/	.	16ee\LL	.	.	.	.	.	.	.	.	.
.	.	16ff#\	.	.	.	.	.	.	.	.	.
8AA/J	#	16gg\	.	.	.	.	.	.	.	.	.
.	.	16ee\JJ	.	.	.	.	.	.	.	.	.
=27	=27	=27	=27	=27	=27	=27	=27	=27	=27	=27	=27
8AA/L	.	16ee\LL	.	1ryy	1ryy	.	1ryy	1ryy	.	4r	.
.	.	16ee\	.	.	.	.	.	.	.	.	.
8AA/	.	16ee\	.	.	.	.	.	.	.	.	.
.	.	16ee\JJ	.	.	.	.	.	.	.	.	.
8C#X/	6	16ee\LL	.	.	.	.	.	.	.	8r	.
.	.	16ee\	.	.	.	.	.	.	.	.	.
8C#/J	5	16ee\	.	.	.	.	.	.	.	8ff#\	in
.	.	16ee\JJ	.	.	.	.	.	.	.	.	.
8D\L	n	8ffn\L	.	.	.	.	.	.	.	8ff#\L	do-
8D\	.	8ff\	.	.	.	.	.	.	.	8ee\J	.
8D\	.	8ff\	.	.	.	.	.	.	.	8dd\	-mum
8d\J	.	8ff\J	.	.	.	.	.	.	.	8cc\	re-
=28	=28	=28	=28	=28	=28	=28	=28	=28	=28	=28	=28
8B\L	5	8ff#\L	.	1ryy	1ryy	.	1ryy	1ryy	.	4b\	-fu-
8c\	.	8ee\	.	.	.	.	.	.	.	.	.
8G#X\	6 5	8ee\	.	.	.	.	.	.	.	4cc\	.
8A\J	.	8ee\J	.	.	.	.	.	.	.	.	.
8E\L	#	8ee\L	.	.	.	.	.	.	.	4.b\	-gi-
8D\	.	8ee\J	.	.	.	.	.	.	.	.	.
!	!	!LO:LB:g=original	!	!	!	!	!	!	!	!	!
8C\	6	8ee\L	.	.	.	.	.	.	.	.	.
8D\J	.	8ffn\J	.	.	.	.	.	.	.	8b\	.
!	!	!	!	!	!	!	!	!	!	!LO:LB:g=original	!
=29	=29	=29	=29	=29	=29	=29	=29	=29	=29	=29	=29
!	!	!LO:TX:a:t=P:problem=skreślona belka	!	!	!	!	!	!	!	!	!
4E\	4	4cc\	.	1ryy	1ryy	.	1ryy	1ryy	.	4a\	-i
4EE/	#	4b\	.	.	.	.	.	.	.	4r	.
!LO:TX:t=P:problem=mixed beam	!	!	!	!	!	!	!	!	!	!	!
8AA/L	.	8.a/L	.	.	.	.	.	.	.	2r	.
8A\	.	.	.	.	.	.	.	.	.	.	.
.	.	16g#X/Jk	.	.	.	.	.	.	.	.	.
8A\	.	24a/LL	.	.	.	.	.	.	.	.	.
.	.	24b/	.	.	.	.	.	.	.	.	.
.	.	24cc/JJ	.	.	.	.	.	.	.	.	.
8G#X\J	6	24b\LL	.	.	.	.	.	.	.	.	.
.	.	24cc\	.	.	.	.	.	.	.	.	.
.	.	24dd\JJ	.	.	.	.	.	.	.	.	.
=30	=30	=30	=30	=30	=30	=30	=30	=30	=30	=30	=30
8A\L	.	16cc\LL	.	1ryy	1ryy	.	1ryy	1ryy	.	00r	.
.	.	16b\J	.	.	.	.	.	.	.	.	.
8A\	.	[8cc\J	.	.	.	.	.	.	.	.	.
8A\	.	24cc\LL]	.	.	.	.	.	.	.	.	.
.	.	24dd\	.	.	.	.	.	.	.	.	.
.	.	24ee\JJ	.	.	.	.	.	.	.	.	.
8D\J	n	24dd\LL	.	.	.	.	.	.	.	.	.
.	.	24ee\	.	.	.	.	.	.	.	.	.
.	.	24ffn\JJ	.	.	.	.	.	.	.	.	.
!LO:LB:g=original	!	!	!	!	!	!	!	!	!	!	!
8C/L	6	16ee\LL	.	.	.	.	.	.	.	.	.
.	.	16cc\	.	.	.	.	.	.	.	.	.
8BB/	.	16dd\	.	.	.	.	.	.	.	.	.
.	.	16b\JJ	.	.	.	.	.	.	.	.	.
8AA/	.	16cc\LL	.	.	.	.	.	.	.	.	.
.	.	16a\	.	.	.	.	.	.	.	.	.
8C/J	.	16g#X\	.	.	.	.	.	.	.	.	.
.	.	16a\JJ	.	.	.	.	.	.	.	.	.
=31	=31	=31	=31	=31	=31	=31	=31	=31	=31	=31	=31
!LO:TX:t=P:problem=mixed beam	!	!	!	!	!	!	!	!	!	!	!
8E\L	4	4e/	.	1ryy	1ryy	.	1ryy	1ryy	.	.	.
8E\	.	.	.	.	.	.	.	.	.	.	.
8EE/	#	4bt/	.	.	.	.	.	.	.	.	.
!	!	!LO:TX:a:t=P:problem=skreślona kreska taktowa	!	!	!	!	!	!	!	!	!
8EE/J	.	.	.	.	.	.	.	.	.	.	.
8AA/L	.	8a/L	.	.	.	.	.	.	.	.	.
8BB/	.	8A/	.	.	.	.	.	.	.	.	.
!	!	!	!LO:DY:t=p&colon;	!	!	!	!	!	!	!	!
8C/	.	8e/	p	.	.	.	.	.	.	.	.
8GG#X/J	6	8e/J	.	.	.	.	.	.	.	.	.
=32	=32	=32	=32	=32	=32	=32	=32	=32	=32	=32	=32
!LO:TX:t=P:problem=mixed beam	!	!	!	!	!	!	!	!	!	!	!
8AA/L	.	8e/L	.	1ryy	1ryy	.	1ryy	1ryy	.	.	.
8A\	.	8e/	.	.	.	.	.	.	.	.	.
8D\	6	8fn/	.	.	.	.	.	.	.	.	.
8D\J	5	8f/J	.	.	.	.	.	.	.	.	.
!	!	!LO:LB:g=original	!	!	!	!	!	!	!	!	!
8E\L	#	8e/L	.	.	.	.	.	.	.	.	.
8E\	.	8e/	.	.	.	.	.	.	.	.	.
8C\	6	8a/	.	.	.	.	.	.	.	.	.
8C\J	.	8a/J	.	.	.	.	.	.	.	.	.
=33	=33	=33	=33	=33	=33	=33	=33	=33	=33	=33	=33
8D/L	n	8a/L	.	1ryy	1ryy	.	1ryy	1ryy	.	.	.
8D/	.	8a/	.	.	.	.	.	.	.	.	.
8C/	6	8a/	.	.	.	.	.	.	.	.	.
8C/J	.	8cc/J	.	.	.	.	.	.	.	.	.
8Fn\L	7	8cc/L	.	.	.	.	.	.	.	.	.
8F\	.	8cc/	.	.	.	.	.	.	.	.	.
8F\	6	8b/	.	.	.	.	.	.	.	.	.
8F\J	.	8a/J	.	.	.	.	.	.	.	.	.
=34	=34	=34	=34	=34	=34	=34	=34	=34	=34	=34	=34
8E\L	#	8b\L	.	1ryy	1ryy	.	1ryy	1ryy	.	00r	.
8E\	.	16ee\L	.	.	.	.	.	.	.	.	.
.	.	16ff#X\JJ	.	.	.	.	.	.	.	.	.
8E\	.	24gg\LL	.	.	.	.	.	.	.	.	.
.	.	24aa\	.	.	.	.	.	.	.	.	.
.	.	24bb\JJ	.	.	.	.	.	.	.	.	.
8E\J	.	24aa\LL	.	.	.	.	.	.	.	.	.
.	.	24bb\	.	.	.	.	.	.	.	.	.
.	.	24ccc\JJ	.	.	.	.	.	.	.	.	.
8E\L	.	16bb\LL	.	.	.	.	.	.	.	.	.
.	.	16gg\J	.	.	.	.	.	.	.	.	.
8E\	.	8ee\J	.	.	.	.	.	.	.	.	.
8E\	.	8e/L	.	.	.	.	.	.	.	.	.
8E\J	.	8g#X/J	.	.	.	.	.	.	.	.	.
=35	=35	=35	=35	=35	=35	=35	=35	=35	=35	=35	=35
8C/L	.	8e/L	.	1ryy	1ryy	.	1ryy	1ryy	.	.	.
8C/J	.	8e/	.	.	.	.	.	.	.	.	.
8D\L	.	8fn/	.	.	.	.	.	.	.	.	.
8Fn\J	6	8f/J	.	.	.	.	.	.	.	.	.
!LO:LB:g=original	!	!	!	!	!	!	!	!	!	!	!
!LO:TX:t=P:problem=mixed beam	!	!	!	!	!	!	!	!	!	!	!
8G\L	.	8d/L	.	.	.	.	.	.	.	.	.
8G\	.	8d/	.	.	.	.	.	.	.	.	.
!LO:TX:a:t=P:problem=skreślone cyfrowanie	!	!	!	!	!	!	!	!	!	!	!
8BB 8GG/	.	8g/	.	.	.	.	.	.	.	.	.
8BBJ 8GG/	.	8g/J	.	.	.	.	.	.	.	.	.
=36	=36	=36	=36	=36	=36	=36	=36	=36	=36	=36	=36
8EE/L	.	8g/L	.	1ryy	1ryy	.	1ryy	1ryy	.	.	.
8GG/J	.	8g/	.	.	.	.	.	.	.	.	.
8AA/L	.	8e/	.	.	.	.	.	.	.	.	.
8AA/J	.	8e/J	.	.	.	.	.	.	.	.	.
!LO:TX:t=P:problem=mixed beam	!	!	!	!	!	!	!	!	!	!	!
8AA/L	.	8e/L	.	.	.	.	.	.	.	.	.
8A\	.	8e/	.	.	.	.	.	.	.	.	.
8Fn\	6	8fn/	.	.	.	.	.	.	.	.	.
8F\J	.	8f/J	.	.	.	.	.	.	.	.	.
!	!	!LO:LB:g=original	!	!	!	!	!	!	!	!	!
=37	=37	=37	=37	=37	=37	=37	=37	=37	=37	=37	=37
8G\L	.	8d/L	.	1ryy	1ryy	.	1ryy	1ryy	.	.	.
8C\	.	8e/	.	.	.	.	.	.	.	.	.
8E\	6	8e/	.	.	.	.	.	.	.	.	.
8E\J	.	8g/J	.	.	.	.	.	.	.	.	.
8E\L	.	8g/L	.	.	.	.	.	.	.	.	.
8E\	.	8g/	.	.	.	.	.	.	.	.	.
8Fn\	.	8fn/	.	.	.	.	.	.	.	.	.
8D\J	.	8a/J	.	.	.	.	.	.	.	.	.
=38	=38	=38	=38	=38	=38	=38	=38	=38	=38	=38	=38
8E\L	6	8g/L	.	1ryy	1ryy	.	1ryy	1ryy	.	0r	.
8C\	.	8e/	.	.	.	.	.	.	.	.	.
8A\	.	8e/	.	.	.	.	.	.	.	.	.
8Fn\J	.	8a/J	.	.	.	.	.	.	.	.	.
!LO:TX:t=P:problem=mixed beam	!	!	!	!	!	!	!	!	!	!	!
8G\L	4	4e/	.	.	.	.	.	.	.	.	.
8G\	.	.	.	.	.	.	.	.	.	.	.
8GG/	3	4d/	.	.	.	.	.	.	.	.	.
8GG/J	.	.	.	.	.	.	.	.	.	.	.
=39	=39	=39	=39	=39	=39	=39	=39	=39	=39	=39	=39
!	!	!LO:TX:t=P:problem=mixed beam	!LO:DY:t=f.	!	!	!	!	!	!	!	!
8C/L	.	8e/L	f	1ryy	1ryy	.	1ryy	1ryy	.	.	.
8C/	.	8cc\J	.	.	.	.	.	.	.	.	.
8C/	.	24cc\LL	.	.	.	.	.	.	.	.	.
.	.	24dd\	.	.	.	.	.	.	.	.	.
.	.	24ee\JJ	.	.	.	.	.	.	.	.	.
8C/J	.	24dd\LL	.	.	.	.	.	.	.	.	.
.	.	24ee\	.	.	.	.	.	.	.	.	.
.	.	24ffn\JJ	.	.	.	.	.	.	.	.	.
8C/L	.	16ee\LL	.	.	.	.	.	.	.	.	.
.	.	16dd\J	.	.	.	.	.	.	.	.	.
8C/J	.	8ee\J	.	.	.	.	.	.	.	.	.
!LO:TX:t=P:problem=mixed beam	!	!	!	!	!	!	!	!	!	!	!
8C/L	.	24ee\LL	.	.	.	.	.	.	.	.	.
.	.	24ff#X\	.	.	.	.	.	.	.	.	.
.	.	24gg\JJ	.	.	.	.	.	.	.	.	.
8G\J	.	24ff#\LL	.	.	.	.	.	.	.	.	.
.	.	24gg\	.	.	.	.	.	.	.	.	.
.	.	24aa\JJ	.	.	.	.	.	.	.	.	.
=40	=40	=40	=40	=40	=40	=40	=40	=40	=40	=40	=40
!	!	!	!	!	!	!	!	!	!	!LO:TX:a:t=P:problem=brakujący 1 takt pauzy (żeby głosy spotkały się na podwójnej kresce w t.73)	!
8E\L	6	16gg\LL	.	1ryy	1ryy	.	1ryy	1ryy	.	1ryy	.
.	.	16ee\	.	.	.	.	.	.	.	.	.
8D\	.	16ffn\	.	.	.	.	.	.	.	.	.
.	.	16dd\JJ	.	.	.	.	.	.	.	.	.
8C\	.	16ee\LL	.	.	.	.	.	.	.	.	.
.	.	16cc\	.	.	.	.	.	.	.	.	.
8E\J	.	16b\	.	.	.	.	.	.	.	.	.
.	.	16cc\JJ	.	.	.	.	.	.	.	.	.
!LO:LB:g=original	!	!	!	!	!	!	!	!	!	!	!
*Xtuplet	*	*	*	*	*	*	*	*	*	*	*
!LO:TX:t=P:problem=mixed beam	!	!	!	!	!	!	!	!	!	!	!
12G\L	4	4g/	.	.	.	.	.	.	.	.	.
12G\	.	.	.	.	.	.	.	.	.	.	.
12GG/J	.	.	.	.	.	.	.	.	.	.	.
4GG/	3	4ddT\	.	.	.	.	.	.	.	.	.
!	!	!LO:LB:g=original	!	!	!	!	!	!	!	!	!
=41	=41	=41	=41	=41	=41	=41	=41	=41	=41	=41-	=41
4C/	.	8dd\L	.	1ryy	1ryy	.	1ryy	1ryy	.	2r	.
.	.	8g\J	.	.	.	.	.	.	.	.	.
8r	.	8c/L	.	.	.	.	.	.	.	.	.
8C/	.	8e/J	.	.	.	.	.	.	.	.	.
8E\L	6	8g/L	.	.	.	.	.	.	.	4r	.
8C\	.	8g/	.	.	.	.	.	.	.	.	.
8Fn\	6	8a/	.	.	.	.	.	.	.	8r	.
8G\J	.	8d/J	.	.	.	.	.	.	.	8g\	E-
=42	=42	=42	=42	=42	=42	=42	=42	=42	=42	=42	=42
!LO:TX:t=P:problem=mixed beam	!	!LO:TX:t=P:problem=mixed beam	!	!	!	!	!	!	!	!	!
8C/L	.	12e/L	.	1ryy	1ryy	.	1ryy	1ryy	.	8cc\L	-du-
.	.	12ee\	.	.	.	.	.	.	.	.	.
8C/	.	.	.	.	.	.	.	.	.	16dd\L	.
.	.	12gg\J	.	.	.	.	.	.	.	.	.
.	.	.	.	.	.	.	.	.	.	16ee\JJ	.
8C/	.	8ccc\L	.	.	.	.	.	.	.	8dd\	.
8Fn\J	.	8cc\J	.	.	.	.	.	.	.	16cc\LL	-ces
.	.	.	.	.	.	.	.	.	.	16b\JJ	.
8E\L	6	8g/L	.	.	.	.	.	.	.	4cc\	me
8E\	.	8g/	.	.	.	.	.	.	.	.	.
8E\	.	8g/	.	.	.	.	.	.	.	8r	.
8Fn\J	.	8c/J	.	.	.	.	.	.	.	8a\	de
=43	=43	=43	=43	=43	=43	=43	=43	=43	=43	=43	=43
8E\L	6	8c/L	.	1ryy	1ryy	.	1ryy	1ryy	.	8g\L	la-
8C\J	.	8e/	.	.	.	.	.	.	.	16cc\L	.
.	.	.	.	.	.	.	.	.	.	16b\JJ	.
8D/L	7	8fn/	.	.	.	.	.	.	.	8cc\L	.
8GG/J	3	8d/J	.	.	.	.	.	.	.	8a\J	.
4C/	.	4e/	.	.	.	.	.	.	.	8g/L	.
.	.	.	.	.	.	.	.	.	.	16f#/L	.
.	.	.	.	.	.	.	.	.	.	16e/JJ	.
8r	.	8r	.	.	.	.	.	.	.	8f#/	.
!LO:TX:a:B:t=T.	!	!	!	!	!	!	!	!	!	!	!
8C/	.	8cc\	.	.	.	.	.	.	.	16f#/	-que-
.	.	.	.	.	.	.	.	.	.	16f#/	-o
=44	=44	=44	=44	=44	=44	=44	=44	=44	=44	=44	=44
!LO:TX:t=P:problem=mixed beam	!	!	!	!	!	!	!	!	!	!	!
8Fn\L	6 5	8dd\	.	1ryy	1ryy	.	1ryy	1ryy	.	4e/	hoc
8D\	.	4dd\	.	.	.	.	.	.	.	.	.
8G\	.	.	.	.	.	.	.	.	.	8r	.
!	!	!	!	!	!	!	!	!	!	!LO:TX:b:t=P:problem=pokreślony tekst	!
8GG/J	.	16cc\LL	.	.	.	.	.	.	.	8ee\	E-
.	.	16b\JJ	.	.	.	.	.	.	.	.	.
8C/L	.	24cc\LL	.	.	.	.	.	.	.	4.dd\	-du-
.	.	24dd\	.	.	.	.	.	.	.	.	.
.	.	24ee\JJ	.	.	.	.	.	.	.	.	.
8C/	.	24dd\LL	.	.	.	.	.	.	.	.	.
.	.	24ee\	.	.	.	.	.	.	.	.	.
.	.	24ffn\JJ	.	.	.	.	.	.	.	.	.
8C/	.	8ee\L	.	.	.	.	.	.	.	.	.
8E/J	.	8cc\J	.	.	.	.	.	.	.	16cc\LL	-ces
.	.	.	.	.	.	.	.	.	.	16dd\JJ	.
!	!	!	!	!	!	!	!	!	!	!LO:LB:g=original	!
=45	=45	=45	=45	=45	=45	=45	=45	=45	=45	=45	=45
8Fn\L	.	8a\L	.	1ryy	1ryy	.	1ryy	1ryy	.	4ee\	me
8G\	.	8b\	.	.	.	.	.	.	.	.	.
8A\	6	8cc\	.	.	.	.	.	.	.	8r	.
8B\J	.	8dd\J	.	.	.	.	.	.	.	8cc\	E-
!LO:LB:g=original	!	!	!	!	!	!	!	!	!	!	!
8c\L	.	8ee\L	.	.	.	.	.	.	.	8a\L	-du
8G\J	.	8ee\J	.	.	.	.	.	.	.	8b\	.
!	!	!LO:LB:g=original	!	!	!	!	!	!	!	!	!
[<4c\	.	8ee\L	.	.	.	.	.	.	.	8cc\J	.
.	.	16dd\L	.	.	.	.	.	.	.	8dd\	ces
.	.	16cc\JJ	.	.	.	.	.	.	.	.	.
=46	=46	=46	=46	=46	=46	=46	=46	=46	=46	=46	=46
8c\L]	#4 2	8dd\L	.	1ryy	1ryy	.	1ryy	1ryy	.	8ee\	me
8B\J	6	8dd\	.	.	.	.	.	.	.	8ee\	de
4A\	7	8cc\	.	.	.	.	.	.	.	8ee\L	la-
.	6	8cc\J	.	.	.	.	.	.	.	16dd\L	.
.	.	.	.	.	.	.	.	.	.	16cc\JJ	.
!LO:TX:t=P:problem=mixed beam	!	!	!	!	!	!	!	!	!	!	!
8G\L	.	4b\	.	.	.	.	.	.	.	8dd\L	.
8G\	.	.	.	.	.	.	.	.	.	8g\J	.
!LO:TX:a:Bi:t=S.	!	!	!	!	!	!	!	!	!	!	!
8C/	.	8g/L	.	.	.	.	.	.	.	8cc\	.
8C/J	.	8g/J	.	.	.	.	.	.	.	16cc\	-que-
.	.	.	.	.	.	.	.	.	.	16cc\	-o
=47	=47	=47	=47	=47	=47	=47	=47	=47	=47	=47	=47
!LO:TX:t=P:problem=mixed beam	!	!	!	!	!	!	!	!	!	!	!
8BB/L	6	8g/L	.	1ryy	1ryy	.	1ryy	1ryy	.	4b\	hoc
8B\	.	8g/	.	.	.	.	.	.	.	.	.
8B\	.	8g/	.	.	.	.	.	.	.	8r	.
8B\J	.	8g/J	.	.	.	.	.	.	.	8ee\	quem
!LO:TX:t=P:problem=mixed beam	!	!	!	!	!	!	!	!	!	!	!
8A\L	6\	8f#X/L	.	.	.	.	.	.	.	16dd\LL	ab-
.	.	.	.	.	.	.	.	.	.	16cc\	.
8F#X\	.	8a/	.	.	.	.	.	.	.	16b\	.
.	.	.	.	.	.	.	.	.	.	16a\JJ	.
8G\	.	8g/	.	.	.	.	.	.	.	8g\	.
8GG/J	.	8g/J	.	.	.	.	.	.	.	16a\LL	-scon-
.	.	.	.	.	.	.	.	.	.	16b\JJ	.
=48	=48	=48	=48	=48	=48	=48	=48	=48	=48	=48	=48
8D/L	#	8f#/L	.	1ryy	1ryy	.	1ryy	1ryy	.	8cc\L	-de-
8DD/J	.	8f#/J	.	.	.	.	.	.	.	16b\L	.
.	.	.	.	.	.	.	.	.	.	16a\JJ	.
8r	.	8r	.	.	.	.	.	.	.	8b\	.
8d\	.	16dd\LL	.	.	.	.	.	.	.	16a\LL	-runt
.	.	16dd\JJ	.	.	.	.	.	.	.	16g\JJ	.
!	!	!	!	!	!	!	!	!	!	!LO:LB:g=original	!
8d\L	.	16ff#\LL	.	.	.	.	.	.	.	8a\	mi-
.	.	16ff#\	.	.	.	.	.	.	.	.	.
16c\L	.	16ff#\	.	.	.	.	.	.	.	8a\	-hi
16B\JJ	.	16ff#\JJ	.	.	.	.	.	.	.	.	.
16A\LL	.	16ff#\LL	.	.	.	.	.	.	.	8r	.
16G\	.	16ff#\	.	.	.	.	.	.	.	.	.
16F#\	.	16ff#\	.	.	.	.	.	.	.	8dd\	quem
16E\JJ	.	16ff#\JJ	.	.	.	.	.	.	.	.	.
=49	=49	=49	=49	=49	=49	=49	=49	=49	=49	=49	=49
8D\L	.	16ff#\LL	.	1ryy	1ryy	.	1ryy	1ryy	.	4dd\	ab-
.	.	16ff#\	.	.	.	.	.	.	.	.	.
8c\J	4 2	16ff#\	.	.	.	.	.	.	.	.	.
.	.	16ff#\JJ	.	.	.	.	.	.	.	.	.
8B\L	.	16gg\LL	.	.	.	.	.	.	.	4dd\	-scon-
.	.	16gg\	.	.	.	.	.	.	.	.	.
!	!	!	!	!	!	!	!	!	!	!LO:TX:a:t=P:problem=skreślona kreska taktowa	!
16A\L	.	16gg\	.	.	.	.	.	.	.	.	.
16G\JJ	.	16gg\JJ	.	.	.	.	.	.	.	.	.
8d\L	.	8ff#\L	.	.	.	.	.	.	.	4.dd\	-de-
8D\J	.	8ff#\J	.	.	.	.	.	.	.	.	.
8r	.	8r	.	.	.	.	.	.	.	.	.
!	!	!LO:LB:g=original	!	!	!	!	!	!	!	!	!
16D\LL	.	16dd\LL	.	.	.	.	.	.	.	8dd\	-runt
16E\JJ	.	16dd\JJ	.	.	.	.	.	.	.	.	.
!LO:LB:g=original	!	!	!	!	!	!	!	!	!	!	!
=50	=50	=50	=50	=50	=50	=50	=50	=50	=50	=50	=50
8F#\L	6	16dd\LL	.	1ryy	1ryy	.	1ryy	1ryy	.	8dd\	mi-
.	.	16ff#\	.	.	.	.	.	.	.	.	.
8D\	.	16dd\	.	.	.	.	.	.	.	8dd\	-hi
.	.	16ff#\JJ	.	.	.	.	.	.	.	.	.
8G\	.	16dd\LL	.	.	.	.	.	.	.	8r	.
.	.	16gg\	.	.	.	.	.	.	.	.	.
8D\J	.	16dd\	.	.	.	.	.	.	.	16dd\	quo-
.	.	16gg\JJ	.	.	.	.	.	.	.	16dd\	-ni-
!	!	!	!	!	!	!	!	!	!	!LO:TX:a:t=P:problem=skreślona kreska taktowa	!
8A\L	6	16dd\LL	.	.	.	.	.	.	.	8.a\L	-am
.	.	16aa\	.	.	.	.	.	.	.	.	.
8D\	.	16dd\	.	.	.	.	.	.	.	.	.
.	.	16aa\JJ	.	.	.	.	.	.	.	(32b\LL	.
.	.	.	.	.	.	.	.	.	.	32cc\JJJ)	.
8B\	6	16dd\LL	.	.	.	.	.	.	.	8.b\L	tu
.	.	16bb\	.	.	.	.	.	.	.	.	.
8D\J	.	16dd\	.	.	.	.	.	.	.	.	.
.	.	16bb\JJ	.	.	.	.	.	.	.	(32cc\LL	.
.	.	.	.	.	.	.	.	.	.	32dd\JJJ)	.
=51	=51	=51	=51	=51	=51	=51	=51	=51	=51	=51	=51
8A\L	6	8ff#\L	.	1ryy	1ryy	.	1ryy	1ryy	.	8.cc\L	es
16G\L	.	16gg\L	.	.	.	.	.	.	.	.	.
16F#\JJ	.	16aa\JJ	.	.	.	.	.	.	.	(32b\LL	.
.	.	.	.	.	.	.	.	.	.	32cc\JJJ)	.
8G\L	.	8gg\L	.	.	.	.	.	.	.	8dd\L	pro-
8C\J	.	8ee\J	.	.	.	.	.	.	.	16cc\L	.
.	.	.	.	.	.	.	.	.	.	16b\JJ	.
!	!	!	!	!	!	!	!	!	!	!LO:TX:a:t=P:problem=skreślona kreska taktowa	!
4D/	6 4	4b/	.	.	.	.	.	.	.	8cc\L	-tec-
.	.	.	.	.	.	.	.	.	.	16b\L	.
.	.	.	.	.	.	.	.	.	.	16a\JJ	.
4DD/	5 3	4a/	.	.	.	.	.	.	.	8b\	.
.	.	.	.	.	.	.	.	.	.	8cc\	-tos
!	!	!	!	!	!	!	!	!	!	!LO:LB:g=original	!
=52	=52	=52	=52	=52	=52	=52	=52	=52	=52	=52	=52
!LO:TX:a:Bi:t=S.	!	!	!	!	!	!	!	!	!	!	!
!LO:TX:t=P:problem=mixed beam	!	!	!	!	!	!	!	!	!	!	!
8GG/L	.	8b/L	.	1ryy	1ryy	.	1ryy	1ryy	.	4b\	me-
8G\	.	[8g/J	.	.	.	.	.	.	.	.	.
8G\	.	24g/LL]	.	.	.	.	.	.	.	4aT\	.
.	.	24a/	.	.	.	.	.	.	.	.	.
.	.	24b/JJ	.	.	.	.	.	.	.	.	.
8G\J	.	24a/LL	.	.	.	.	.	.	.	.	.
.	.	24b/	.	.	.	.	.	.	.	.	.
.	.	24cc/JJ	.	.	.	.	.	.	.	.	.
.	.	.	.	.	.	.	.	.	.	8qf#/	.
8G\L	.	16b/LL	.	.	.	.	.	.	.	4g\	-us
.	.	16a/J	.	.	.	.	.	.	.	.	.
8G\	.	[8b/J	.	.	.	.	.	.	.	.	.
8G\	.	24b\LL]	.	.	.	.	.	.	.	4r	.
.	.	24cc\	.	.	.	.	.	.	.	.	.
.	.	24dd\JJ	.	.	.	.	.	.	.	.	.
8d\J	.	24cc\LL	.	.	.	.	.	.	.	.	.
.	.	24dd\	.	.	.	.	.	.	.	.	.
.	.	24ee\JJ	.	.	.	.	.	.	.	.	.
!	!	!LO:LB:g=original	!	!	!	!	!	!	!	!	!
=53	=53	=53	=53	=53	=53	=53	=53	=53	=53	=53	=53
8B\L	6	16dd\LL	.	1ryy	1ryy	.	1ryy	1ryy	.	00r	.
.	.	16b\	.	.	.	.	.	.	.	.	.
8A\	.	16cc\	.	.	.	.	.	.	.	.	.
.	.	16a\JJ	.	.	.	.	.	.	.	.	.
8G\	.	16b/LL	.	.	.	.	.	.	.	.	.
.	.	16g/	.	.	.	.	.	.	.	.	.
8G\J	.	16f#/	.	.	.	.	.	.	.	.	.
.	.	16g/JJ	.	.	.	.	.	.	.	.	.
8D/L	4	4d/	.	.	.	.	.	.	.	.	.
8D/	.	.	.	.	.	.	.	.	.	.	.
8DD/	3	4a/	.	.	.	.	.	.	.	.	.
8DD/J	.	.	.	.	.	.	.	.	.	.	.
=54	=54	=54	=54	=54	=54	=54	=54	=54	=54	=54	=54
!LO:TX:t=P:problem=mixed beam	!	!	!LO:DY:t=p&colon;	!	!	!	!	!	!	!	!
8GG/L	.	8g/L	p	1ryy	1ryy	.	1ryy	1ryy	.	.	.
8GG/	.	8d/	.	.	.	.	.	.	.	.	.
8G\	.	8d/	.	.	.	.	.	.	.	.	.
8G\J	.	8d/J	.	.	.	.	.	.	.	.	.
8C/L	.	8g/L	.	.	.	.	.	.	.	.	.
8BB/	6	8g/	.	.	.	.	.	.	.	.	.
8AA/	7	8g/	.	.	.	.	.	.	.	.	.
8D/J	7	8f#/J	.	.	.	.	.	.	.	.	.
!LO:LB:g=original	!	!	!	!	!	!	!	!	!	!	!
=55	=55	=55	=55	=55	=55	=55	=55	=55	=55	=55	=55
!LO:TX:t=P:problem=mixed beam	!	!	!	!	!	!	!	!	!	!	!
8GG/L	.	8g/L	.	1ryy	1ryy	.	1ryy	1ryy	.	.	.
8G\	.	8g/	.	.	.	.	.	.	.	.	.
8G\	.	8g/	.	.	.	.	.	.	.	.	.
8G\J	.	8f#/J	.	.	.	.	.	.	.	.	.
8F#\L	6	8a/L	.	.	.	.	.	.	.	.	.
8F#\	.	8a/	.	.	.	.	.	.	.	.	.
8F#\	.	8a/	.	.	.	.	.	.	.	.	.
8F#\J	.	8a/J	.	.	.	.	.	.	.	.	.
=56	=56	=56	=56	=56	=56	=56	=56	=56	=56	=56	=56
!LO:TX:t=P:problem=mixed beam	!	!	!	!	!	!	!	!	!	!	!
8F#\L	6	8a/L	.	1ryy	1ryy	.	1ryy	1ryy	.	.	.
8D\	.	8f#/	.	.	.	.	.	.	.	.	.
8E\	7	8g/	.	.	.	.	.	.	.	.	.
8AA/J	7 #	8g/J	.	.	.	.	.	.	.	.	.
8D\L	.	8f#/L	.	.	.	.	.	.	.	.	.
8D\	.	8f#/	.	.	.	.	.	.	.	.	.
8F#\	6	8d/	.	.	.	.	.	.	.	.	.
8F#\J	.	8d/J	.	.	.	.	.	.	.	.	.
=57	=57	=57	=57	=57	=57	=57	=57	=57	=57	=57	=57
8F#\L	6	8d/L	.	1ryy	1ryy	.	1ryy	1ryy	.	00r	.
8F#\	.	8d/	.	.	.	.	.	.	.	.	.
8G\	.	8d/	.	.	.	.	.	.	.	.	.
8G\J	.	8d/J	.	.	.	.	.	.	.	.	.
8G\L	6	8d/L	.	.	.	.	.	.	.	.	.
8G\	.	8e/	.	.	.	.	.	.	.	.	.
8A\	5	8e/	.	.	.	.	.	.	.	.	.
8A\J	6 #	8f#/J	.	.	.	.	.	.	.	.	.
!	!	!LO:PB:g=original	!	!	!	!	!	!	!	!	!
=58	=58	=58	=58	=58	=58	=58	=58	=58	=58	=58	=58
8B\L	3	8f#/L	.	1ryy	1ryy	.	1ryy	1ryy	.	.	.
8B\	6	8g/	.	.	.	.	.	.	.	.	.
8c#X\	5	8g/	.	.	.	.	.	.	.	.	.
8c#\J	6	8a/J	.	.	.	.	.	.	.	.	.
8d\L	.	8a/L	.	.	.	.	.	.	.	.	.
8F#\	6	8a/	.	.	.	.	.	.	.	.	.
8G\	.	8d/	.	.	.	.	.	.	.	.	.
8E\J	.	8g/J	.	.	.	.	.	.	.	.	.
=59	=59	=59	=59	=59	=59	=59	=59	=59	=59	=59	=59
!LO:TX:t=P:problem=mixed beam	!	!	!	!	!	!	!	!	!	!	!
8A\L	4	4f#/	.	1ryy	1ryy	.	1ryy	1ryy	.	.	.
8A\	.	.	.	.	.	.	.	.	.	.	.
8AA\	#	4e/	.	.	.	.	.	.	.	.	.
8AA\J	.	.	.	.	.	.	.	.	.	.	.
!	!	!LO:TX:t=P:problem=mixed beam	!LO:DY:t=f.	!	!	!	!	!	!	!	!
8D/L	.	8f#/L	f	.	.	.	.	.	.	.	.
8D/	.	[8dd\J	.	.	.	.	.	.	.	.	.
8D/	.	24dd\LL]	.	.	.	.	.	.	.	.	.
.	.	24ee\	.	.	.	.	.	.	.	.	.
.	.	24ff#\JJ	.	.	.	.	.	.	.	.	.
8C#X/J	.	24ee\LL	.	.	.	.	.	.	.	.	.
.	.	24ff#\	.	.	.	.	.	.	.	.	.
.	.	24gg\JJ	.	.	.	.	.	.	.	.	.
!LO:LB:g=original	!	!	!	!	!	!	!	!	!	!	!
=60	=60	=60	=60	=60	=60	=60	=60	=60	=60	=60	=60
8D\L	.	8ff#\L	.	1ryy	1ryy	.	1ryy	1ryy	.	.	.
8D\	.	[8ff#\J	.	.	.	.	.	.	.	.	.
8D\	.	24ff#\LL]	.	.	.	.	.	.	.	.	.
.	.	24gg\	.	.	.	.	.	.	.	.	.
.	.	24aa\JJ	.	.	.	.	.	.	.	.	.
8G\J	.	24gg\LL	.	.	.	.	.	.	.	.	.
.	.	24aa\	.	.	.	.	.	.	.	.	.
.	.	24bb\JJ	.	.	.	.	.	.	.	.	.
8F#\L	6	16aa\LL	.	.	.	.	.	.	.	.	.
.	.	16ff#\	.	.	.	.	.	.	.	.	.
8E\	.	16gg\	.	.	.	.	.	.	.	.	.
.	.	16ee\JJ	.	.	.	.	.	.	.	.	.
8D\	.	16ff#\LL	.	.	.	.	.	.	.	.	.
.	.	16dd\	.	.	.	.	.	.	.	.	.
8F#\J	.	16cc#X\	.	.	.	.	.	.	.	.	.
.	.	16dd\JJ	.	.	.	.	.	.	.	.	.
=61	=61	=61	=61	=61	=61	=61	=61	=61	=61	=61	=61
!LO:TX:t=P:problem=mixed beam	!	!	!	!	!	!	!	!	!	!	!
8A\L	4	4a/	.	1ryy	1ryy	.	1ryy	1ryy	.	00r	.
8A\	.	.	.	.	.	.	.	.	.	.	.
8AA/	#	4eeT\	.	.	.	.	.	.	.	.	.
8AA/J	.	.	.	.	.	.	.	.	.	.	.
8D\L	.	8dd\L	.	.	.	.	.	.	.	.	.
!	!	!	!LO:DY:t=p.	!	!	!	!	!	!	!	!
8D\	.	8f#/	p	.	.	.	.	.	.	.	.
8F#\	6	8a/	.	.	.	.	.	.	.	.	.
8G\J	.	8b/J	.	.	.	.	.	.	.	.	.
=62	=62	=62	=62	=62	=62	=62	=62	=62	=62	=62	=62
!LO:TX:t=P:problem=mixed beam	!	!	!	!	!	!	!	!	!	!	!
8A\L	#	8e/L	.	1ryy	1ryy	.	1ryy	1ryy	.	.	.
8AA/	.	8e/	.	.	.	.	.	.	.	.	.
8AA/	.	8e/	.	.	.	.	.	.	.	.	.
8BB/J	.	8g#X/J	.	.	.	.	.	.	.	.	.
8C#X/L	6	8a/L	.	.	.	.	.	.	.	.	.
8C#/	.	8a/J	.	.	.	.	.	.	.	.	.
!	!	!LO:LB:g=original	!	!	!	!	!	!	!	!	!
8C#/	.	8a/L	.	.	.	.	.	.	.	.	.
8C#/J	.	8a/J	.	.	.	.	.	.	.	.	.
=63	=63	=63	=63	=63	=63	=63	=63	=63	=63	=63	=63
8D\L	.	8a/L	.	1ryy	1ryy	.	1ryy	1ryy	.	.	.
8D\	.	8a/	.	.	.	.	.	.	.	.	.
8D\	.	8a/	.	.	.	.	.	.	.	.	.
8D\J	.	8a/J	.	.	.	.	.	.	.	.	.
8F#\L	6	8dd\L	.	.	.	.	.	.	.	.	.
8F#\	.	8dd\	.	.	.	.	.	.	.	.	.
8F#\	.	8dd\	.	.	.	.	.	.	.	.	.
8F#\J	.	8dd\J	.	.	.	.	.	.	.	.	.
=64	=64	=64	=64	=64	=64	=64	=64	=64	=64	=64	=64
8F#\L	6 n3	8dd\L	.	1ryy	1ryy	.	1ryy	1ryy	.	.	.
8F#\	.	8dd\	.	.	.	.	.	.	.	.	.
8F#\	.	8dd\	.	.	.	.	.	.	.	.	.
8F#\J	.	8dd\J	.	.	.	.	.	.	.	.	.
8G\L	.	8dd\L	.	.	.	.	.	.	.	.	.
8G\	.	8dd\	.	.	.	.	.	.	.	.	.
8G\	.	8dd\	.	.	.	.	.	.	.	.	.
8G\J	.	8dd\J	.	.	.	.	.	.	.	.	.
!LO:LB:g=original	!	!	!	!	!	!	!	!	!	!	!
=65	=65	=65	=65	=65	=65	=65	=65	=65	=65	=65	=65
!LO:TX:t=P:problem=mixed beam	!	!	!	!	!	!	!	!	!	!	!
8G\L	.	8dd\L	.	1ryy	1ryy	.	1ryy	1ryy	.	00r	.
8G\	.	8dd\	.	.	.	.	.	.	.	.	.
8C/	6	8ee\	.	.	.	.	.	.	.	.	.
8C/J	5	8ee\J	.	.	.	.	.	.	.	.	.
8D/L	.	8a/L	.	.	.	.	.	.	.	.	.
8C/	.	8a/	.	.	.	.	.	.	.	.	.
8BB/	6	8b/	.	.	.	.	.	.	.	.	.
8E/J	6	8cc/J	.	.	.	.	.	.	.	.	.
=66	=66	=66	=66	=66	=66	=66	=66	=66	=66	=66	=66
8D/L	.	8b/L	.	1ryy	1ryy	.	1ryy	1ryy	.	.	.
8D/	6 4	8b/	.	.	.	.	.	.	.	.	.
8DD/	5 3	8a/	.	.	.	.	.	.	.	.	.
8DD/J	.	8a/J	.	.	.	.	.	.	.	.	.
!LO:TX:t=P:problem=mixed beam	!	!	!LO:DY:t=f.	!	!	!	!	!	!	!	!
8GG/L	.	8g/L	f	.	.	.	.	.	.	.	.
8G\	.	8g/J	.	.	.	.	.	.	.	.	.
8G\	.	24g/LL	.	.	.	.	.	.	.	.	.
.	.	24a/	.	.	.	.	.	.	.	.	.
.	.	24b/JJ	.	.	.	.	.	.	.	.	.
8F#\J	6	24a/LL	.	.	.	.	.	.	.	.	.
.	.	24b/	.	.	.	.	.	.	.	.	.
.	.	24cc/JJ	.	.	.	.	.	.	.	.	.
=67	=67	=67	=67	=67	=67	=67	=67	=67	=67	=67	=67
8G\L	.	8b\L	.	1ryy	1ryy	.	1ryy	1ryy	.	.	.
8G\	.	[8b\J	.	.	.	.	.	.	.	.	.
8G\	.	24b\LL]	.	.	.	.	.	.	.	.	.
.	.	24cc\	.	.	.	.	.	.	.	.	.
.	.	24dd\JJ	.	.	.	.	.	.	.	.	.
8d\J	.	24cc\LL	.	.	.	.	.	.	.	.	.
.	.	24dd\	.	.	.	.	.	.	.	.	.
.	.	24ee\JJ	.	.	.	.	.	.	.	.	.
!	!	!LO:LB:g=original	!	!	!	!	!	!	!	!	!
8B\L	6	16dd\LL	.	.	.	.	.	.	.	.	.
.	.	16b\	.	.	.	.	.	.	.	.	.
8G\	.	16cc\	.	.	.	.	.	.	.	.	.
.	.	16a\JJ	.	.	.	.	.	.	.	.	.
8G\	.	16b/LL	.	.	.	.	.	.	.	.	.
.	.	16g/	.	.	.	.	.	.	.	.	.
8B\J	.	16f#/	.	.	.	.	.	.	.	.	.
.	.	16g/JJ	.	.	.	.	.	.	.	.	.
=68	=68	=68	=68	=68	=68	=68	=68	=68	=68	=68	=68
!LO:TX:t=P:problem=mixed beam	!	!	!	!	!	!	!	!	!	!	!
8d\L	.	4d/	.	1ryy	1ryy	.	1ryy	1ryy	.	.	.
8d\	4	.	.	.	.	.	.	.	.	.	.
8D/	3	4aT/	.	.	.	.	.	.	.	.	.
8D/J	.	.	.	.	.	.	.	.	.	.	.
4GG/	.	8g/L	.	.	.	.	.	.	.	.	.
.	.	8d/J	.	.	.	.	.	.	.	.	.
4r	.	4G/	.	.	.	.	.	.	.	.	.
=69	=69	=69	=69	=69	=69	=69	=69	=69	=69	=69-	=69
!LO:TX:a:t=T.	!	!	!	!	!	!	!	!	!	!	!
4.G\	.	4.dd\	.	1ryy	1ryy	.	1ryy	1ryy	.	2r	.
8G\	.	8dd\	.	.	.	.	.	.	.	.	.
8F#\L	6	8dd\L	.	.	.	.	.	.	.	[4b\	Si-
8D\	.	8dd\	.	.	.	.	.	.	.	.	.
8E\	.	8cc\	.	.	.	.	.	.	.	16b\LL]	.
.	.	.	.	.	.	.	.	.	.	16cc\JJ	.
8F#\J	.	8dd\J	.	.	.	.	.	.	.	16a\LL	-cut
.	.	.	.	.	.	.	.	.	.	16b\JJ	.
!LO:LB:g=original	!	!	!	!	!	!	!	!	!	!	!
=70	=70	=70	=70	=70	=70	=70	=70	=70	=70	=70	=70
8G\L	.	8b\L	.	1ryy	1ryy	.	1ryy	1ryy	.	8dd\	e-
8G\	.	8b\	.	.	.	.	.	.	.	8dd\	-rat
8B\	.	8dd\	.	.	.	.	.	.	.	8cc\	in
8G\J	.	8b\J	.	.	.	.	.	.	.	8dd\	prin-
4c\	.	8ee\L	.	.	.	.	.	.	.	8b\	-ci-
.	.	8ee\	.	.	.	.	.	.	.	8b\	-pi-
4B\	6	8dd\	.	.	.	.	.	.	.	8b\	-o
!	!	!	!	!	!	!	!	!	!	!LO:SIC:v:l:s=et	!
.	.	8dd\J	.	.	.	.	.	.	.	8dd\	&
=71	=71	=71	=71	=71	=71	=71	=71	=71	=71	=71	=71
*2\right	*	*	*	*	*	*	*	*	*	*	*
2A\	7	2cc\	.	1ryy	1ryy	.	1ryy	1ryy	.	4ee\	nunc
!	!	!	!	!	!	!	!	!	!	!LO:SIC:v:l:s=et	!
.	6	.	.	.	.	.	.	.	.	4dd\	&
8G\L	.	8b\L	.	.	.	.	.	.	.	2cc\	sem-
8B\	.	8dd\	.	.	.	.	.	.	.	.	.
8A\	.	8cc\	.	.	.	.	.	.	.	.	.
8G\J	.	8b\J	.	.	.	.	.	.	.	.	.
=72	=72	=72	=72	=72	=72	=72	=72	=72	=72	=72	=72
4F#\	6	4a/	.	1ryy	1ryy	.	1ryy	1ryy	.	8b\	-per
!	!	!	!	!	!	!	!	!	!	!LO:SIC:v:l:s=et	!
.	.	.	.	.	.	.	.	.	.	8dd\	&
!	!	!	!	!	!	!	!	!	!	!LO:LB:g=original	!
4G\	.	2dd\	.	.	.	.	.	.	.	8cc\	nunc
!	!	!	!	!	!	!	!	!	!	!LO:SIC:v:l:s=et	!
.	.	.	.	.	.	.	.	.	.	8b\	&
2E\	7	.	.	.	.	.	.	.	.	4a\	sem-
.	6\	4cc#X\	.	.	.	.	.	.	.	[4dd\	.
=73	=73	=73	=73	=73	=73	=73	=73	=73	=73	=73	=73
1D;	.	[1dd	.	1ryy	1ryy	.	1ryy	1ryy	.	4dd\]	.
.	.	.	.	.	.	.	.	.	.	4cc#X\	.
.	.	.	.	.	.	.	.	.	.	2dd\	-per
=74||	=74||	=74||	=74||	=74||	=74||	=74||	=74||	=74||	=74||	=74||	=74||
*clefC1	*	*	*	*	*	*	*	*	*	*	*
*k[f#]	*	*	*	*	*	*	*	*	*	*	*
*M4/4	*	*M4/4	*	*	*	*	*	*	*	*M4/4	*
*met(c)	*	*met(c)	*	*	*	*	*	*	*	*met(c)	*
4.dd\|	.	4.dd\]	.	1ryy	1ryy	.	1ryy	1ryy	.	4.dd\	Et
8dd\|	.	8dd\	.	.	.	.	.	.	.	8dd\	in
!	!	!LO:LB:g=original	!	!	!	!	!	!	!	!	!
8b\L	.	8b/L	.	.	.	.	.	.	.	8b\	sae-
16a\L	.	16a/L	.	.	.	.	.	.	.	16a\	-cu-
16g\JJ	.	16g/JJ	.	.	.	.	.	.	.	16g\	-la
8a\L	.	8a/L	.	.	.	.	.	.	.	8a\	sae-
8b\J	.	8b/J	.	.	.	.	.	.	.	8b\	-cu-
=75	=75	=75	=75	=75	=75	=75	=75	=75	=75	=75	=75
8cc\L	.	8cc\L	.	1ryy	1ryy	.	1ryy	1ryy	.	8cc\L	-lo-
16b\L	.	16b\L	.	.	.	.	.	.	.	16b\L	.
16a\JJ	.	16a\JJ	.	.	.	.	.	.	.	16a\JJ	.
!	!	!	!	!	!	!	!	!	!	!LO:TX:a:t=P:problem=przekreślenie belki	!
8b\L	.	8b/L	.	.	.	.	.	.	.	8b\L	.
16a\L	.	16a/L	.	.	.	.	.	.	.	16a\L	-rum
16g\JJ	.	16g/JJ	.	.	.	.	.	.	.	16g\JJ	.
2a\	.	2a/	.	.	.	.	.	.	.	2a\	a-
!LO:LB:g=original	!	!	!	!	!	!	!	!	!	!	!
=76	=76	=76	=76	=76	=76	=76	=76	=76	=76	=76	=76
*clefC3	*	*	*	*	*	*	*	*	*	*	*
4.g\|	.	8g/L	.	1ryy	1ryy	.	1ryy	1ryy	.	4g\	-men
.	3	8b/J	.	.	.	.	.	.	.	.	.
.	.	16b\LL	.	.	.	.	.	.	.	16b\LL	a-
.	.	16cc\	.	.	.	.	.	.	.	16cc\	.
8g\	n	16b\	.	.	.	.	.	.	.	16b\	.
.	4	16cc\JJ	.	.	.	.	.	.	.	16cc\JJ	.
8f#\L	6	8dd\L	.	.	.	.	.	.	.	8dd\L	.
16e\L	6	16cc\L	.	.	.	.	.	.	.	16cc\L	.
16d\JJ	6	16b\JJ	.	.	.	.	.	.	.	16b\JJ	.
!	!	!	!	!	!	!	!	!	!	!LO:LB:g=original	!
!	!	!	!	!	!	!	!	!	!	!LO:TX:a:t=P:problem=brakujący takt partii	!
8e\L	6	4cc\	.	.	.	.	.	.	.	4cc\yy	.
8f#\J	.	.	.	.	.	.	.	.	.	.	.
=77	=77	=77	=77	=77	=77	=77	=77	=77	=77	=77	=77
!	!	!LO:TX:a:t=P:problem=przed tym taktem jeden skreślony	!	!	!	!	!	!	!	!	!
8g\L	.	8b\L	.	1ryy	1ryy	.	1ryy	1ryy	.	2.ryy	.
16f#\L	.	8dd\J	.	.	.	.	.	.	.	.	.
16e\JJ	.	.	.	.	.	.	.	.	.	.	.
8f#\L	6	16dd\LL	.	.	.	.	.	.	.	.	.
.	.	16a\JJ	.	.	.	.	.	.	.	.	.
16e\L	.	4dd\	.	.	.	.	.	.	.	.	.
16d\JJ	.	.	.	.	.	.	.	.	.	.	.
2e\	7	.	.	.	.	.	.	.	.	.	.
.	6\	16cc#X\LL	.	.	.	.	.	.	.	.	.
.	.	16b\JJ	.	.	.	.	.	.	.	.	.
!	!	!	!	!	!	!	!	!	!	!LO:TX:a:t=P:problem=od tego miejsca partia ze skanu str. 0005	!
.	.	4cc#\	.	.	.	.	.	.	.	4cc\	.
=78	=78	=78	=78	=78	=78	=78	=78	=78	=78	=78	=78
*clefC4	*	*	*	*	*	*	*	*	*	*	*
*k[f#]	*	*	*	*	*	*	*	*	*	*	*
!	!	!LO:TX:t=P:problem=mixed beam	!	!	!	!	!	!	!	!	!
4.d\	.	8dd\L	.	1ryy	1ryy	.	1ryy	1ryy	.	8b\	-men
.	.	8f#/	.	.	.	.	.	.	.	8a\L	a-
.	.	8g/	.	.	.	.	.	.	.	8b\	.
8d\	.	8a/J	.	.	.	.	.	.	.	8cc\J	.
8B\L	6	8b\L	.	.	.	.	.	.	.	8dd\	.
16A\L	.	16cc\L	.	.	.	.	.	.	.	4gg\	.
16G\JJ	.	16b\JJ	.	.	.	.	.	.	.	.	.
8A\L	.	8cc\L	.	.	.	.	.	.	.	.	.
8B\J	.	8dd\J	.	.	.	.	.	.	.	8ff#\	.
=79	=79	=79	=79	=79	=79	=79	=79	=79	=79	=79	=79
8c\L	.	8ee\L	.	1ryy	1ryy	.	1ryy	1ryy	.	8ee\L	.
16B\L	.	16dd\L	.	.	.	.	.	.	.	16dd\L	.
16A\JJ	.	16cc\JJ	.	.	.	.	.	.	.	16cc\JJ	.
8B\L	6	8dd\L	.	.	.	.	.	.	.	8dd\L	.
16A\L	.	16cc\L	.	.	.	.	.	.	.	16cc\L	.
16G\JJ	.	16b\JJ	.	.	.	.	.	.	.	16b\JJ	.
!	!	!LO:LB:g=original	!	!	!	!	!	!	!	!LO:TX:a:t=P:problem=przeprawiana półnuta z ćwierćnuty, cauda po lewej	!
2A\	7	2cc\	.	.	.	.	.	.	.	2cc\	.
.	6	.	.	.	.	.	.	.	.	.	.
=80	=80	=80	=80	=80	=80	=80	=80	=80	=80	=80	=80
*clefF4	*	*	*	*	*	*	*	*	*	*	*
*k[f#]	*	*	*	*	*	*	*	*	*	*	*
4.G\	.	8b\	.	1ryy	1ryy	.	1ryy	1ryy	.	4b\	-men
.	.	4dd\	.	.	.	.	.	.	.	.	.
.	.	.	.	.	.	.	.	.	.	4r	.
8G\	.	8dd\	.	.	.	.	.	.	.	.	.
!	!	!LO:TX:t=P:problem=mixed beam	!	!	!	!	!	!	!	!	!
8F#\L	.	8dd\L	.	.	.	.	.	.	.	2r	.
16E\L	.	16g/L	.	.	.	.	.	.	.	.	.
16D\JJ	.	16f#/JJ	.	.	.	.	.	.	.	.	.
8E\L	6	8g/L	.	.	.	.	.	.	.	.	.
8F#\J	6	8a/J	.	.	.	.	.	.	.	.	.
!LO:PB:g=original	!	!	!	!	!	!	!	!	!	!	!
=81	=81	=81	=81	=81	=81	=81	=81	=81	=81	=81	=81
8G\L	.	8b/L	.	1ryy	1ryy	.	1ryy	1ryy	.	1r	.
16F#\L	.	16a/L	.	.	.	.	.	.	.	.	.
16E\JJ	.	16g/JJ	.	.	.	.	.	.	.	.	.
8F#\L	6	8a/L	.	.	.	.	.	.	.	.	.
16E\L	.	16g/L	.	.	.	.	.	.	.	.	.
16D\JJ	.	16f#/JJ	.	.	.	.	.	.	.	.	.
2E\	7	2a/	.	.	.	.	.	.	.	.	.
.	6\	.	.	.	.	.	.	.	.	.	.
=82	=82	=82	=82	=82	=82	=82	=82	=82	=82	=82	=82
!	!	!	!	!	!	!	!	!	!	!LO:SIC:v:l:s=et	!
8D\L	.	8f#/L	.	1ryy	1ryy	.	1ryy	1ryy	.	4.dd\	&
8D\	.	8f#/	.	.	.	.	.	.	.	.	.
8E\	.	8g/	.	.	.	.	.	.	.	.	.
8F#\J	.	8a/J	.	.	.	.	.	.	.	8dd\	in
8G\L	.	8d/L	.	.	.	.	.	.	.	8b\	sae-
8E\	.	8b/	.	.	.	.	.	.	.	16a\	-cu-
.	.	.	.	.	.	.	.	.	.	16g\	-la
8F#\	6	8a/	.	.	.	.	.	.	.	8a\	sae-
8G\J	.	8g/J	.	.	.	.	.	.	.	8b\	-cu-
=83	=83	=83	=83	=83	=83	=83	=83	=83	=83	=83	=83
8A\L	.	8e/L	.	1ryy	1ryy	.	1ryy	1ryy	.	8cc\L	-lo-
8F#\	6	8a/	.	.	.	.	.	.	.	16b\L	.
.	.	.	.	.	.	.	.	.	.	16a\JJ	.
8G\	.	8g/	.	.	.	.	.	.	.	8b\L	.
8B\J	.	8g/J	.	.	.	.	.	.	.	16a\L	.
.	.	.	.	.	.	.	.	.	.	16g\JJ	.
!	!	!	!	!	!	!	!	!	!	!LO:LB:g=original	!
8c\L	6 5	4g/	.	.	.	.	.	.	.	2a\	.
8A\	.	.	.	.	.	.	.	.	.	.	.
8d\	.	4f#/	.	.	.	.	.	.	.	.	.
8c\J	.	.	.	.	.	.	.	.	.	.	.
=84	=84	=84	=84	=84	=84	=84	=84	=84	=84	=84	=84
8B\L	6	4g/	.	1ryy	1ryy	.	1ryy	1ryy	.	4g\	-rum
8G\J	.	.	.	.	.	.	.	.	.	.	.
8r	.	4.b/	.	.	.	.	.	.	.	4.b\	a-
8E\	.	.	.	.	.	.	.	.	.	.	.
8D#X/L	6	.	.	.	.	.	.	.	.	.	.
8BB/	.	16a/LL	.	.	.	.	.	.	.	16a\LL	.
.	.	16g/JJ	.	.	.	.	.	.	.	16g\JJ	.
8C#X/	6	[4a/	.	.	.	.	.	.	.	[4a\	.
8D#/J	.	.	.	.	.	.	.	.	.	.	.
=85	=85	=85	=85	=85	=85	=85	=85	=85	=85	=85	=85
8E\L	4	8a/L]	.	1ryy	1ryy	.	1ryy	1ryy	.	8a\L]	.
8BB\	3	16g/L	.	.	.	.	.	.	.	16g\L	.
.	.	16f#/JJ	.	.	.	.	.	.	.	16f#\JJ	.
8E\	.	8g/L	.	.	.	.	.	.	.	8g\L	.
8A\J	.	8a/J	.	.	.	.	.	.	.	8a\J	.
!	!	!LO:LB:g=original	!	!	!	!	!	!	!	!	!
4B\	.	4g/	.	.	.	.	.	.	.	4g/	.
4BB/	4	4f#/	.	.	.	.	.	.	.	4f#/	.
.	#	.	.	.	.	.	.	.	.	.	.
=86	=86	=86	=86	=86	=86	=86	=86	=86	=86	=86	=86
*^	*	*	*	*	*	*	*	*	*	*	*
4E\	4ryy	.	8e/	.	1ryy	1ryy	.	1ryy	1ryy	.	8e/	-men
.	.	.	4b\	.	.	.	.	.	.	.	8ee\L	a-
!LO:LB:g=original	!	!	!	!	!	!	!	!	!	!	!	!
*clefC1	*	*	*	*	*	*	*	*	*	*	*	*
*k[f#]	*	*	*	*	*	*	*	*	*	*	*	*
8dd#X/L	4b\	.	.	.	.	.	.	.	.	.	8dd#X\J	.
8b/J	.	.	8b\	.	.	.	.	.	.	.	16cc#X\LL	.
.	.	.	.	.	.	.	.	.	.	.	16b\JJ	.
4.ee/	8g\L	.	8g/L	.	.	.	.	.	.	.	4.ee\	.
.	16f#\L	.	16f#/L	.	.	.	.	.	.	.	.	.
.	16e\JJ	.	16e/JJ	.	.	.	.	.	.	.	.	.
.	8f#\L	.	8f#/L	.	.	.	.	.	.	.	.	.
!LO:SIC:v:n=1:s=8ddn	!	!	!	!	!	!	!	!	!	!	!	!
8dd#/	8g\J	.	8g/J	.	.	.	.	.	.	.	8ddn\	.
=87	=87	=87	=87	=87	=87	=87	=87	=87	=87	=87	=87	=87
8cc/L	8a\L	.	8a/L	.	1ryy	1ryy	.	1ryy	1ryy	.	8cc\L	.
16b/L	16g\L	.	16g/L	.	.	.	.	.	.	.	16b\L	.
16a/JJ	16f#\JJ	.	16f#/JJ	.	.	.	.	.	.	.	16a\JJ	.
8b/L	8g\L	.	8g/L	.	.	.	.	.	.	.	8b\L	.
8ee/J	16f#\L	.	16f#/L	.	.	.	.	.	.	.	8ee\J	.
.	16e\JJ	.	16e/JJ	.	.	.	.	.	.	.	.	.
8ee/L	2f#\	.	2f#/	.	.	.	.	.	.	.	4ee\	-men
8dd#X/J	.	.	.	.	.	.	.	.	.	.	.	.
4rffyy	.	.	.	.	.	.	.	.	.	.	4dd#X\	a-
=88	=88	=88	=88	=88	=88	=88	=88	=88	=88	=88	=88	=88
4ee/	4e\	.	4e/	.	1ryy	1ryy	.	1ryy	1ryy	.	4ee\	-men
4dd/	4b\	.	2b/	.	.	.	.	.	.	.	4ddn\	a-
!	!	!	!	!	!	!	!	!	!	!	!LO:LB:g=original	!
*clefC4	*	*	*	*	*	*	*	*	*	*	*	*
*k[f#]	*	*	*	*	*	*	*	*	*	*	*	*
4.f#\	2ryy	4	.	.	.	.	.	.	.	.	2cc\	.
.	.	.	4a#X/	.	.	.	.	.	.	.	.	.
8f#\	.	#	.	.	.	.	.	.	.	.	.	.
*v	*v	*	*	*	*	*	*	*	*	*	*	*
=89	=89	=89	=89	=89	=89	=89	=89	=89	=89	=89	=89
8d\L	6	4b/	.	1ryy	1ryy	.	1ryy	1ryy	.	4b\	-men
16c#X\L	.	.	.	.	.	.	.	.	.	.	.
16B\JJ	.	.	.	.	.	.	.	.	.	.	.
8c#\L	6	8r	.	.	.	.	.	.	.	8r	.
8d\J	.	8b/	.	.	.	.	.	.	.	8b\	a-
8e\L	.	8cc/L	.	.	.	.	.	.	.	8cc\L	.
16d\L	.	16b/L	.	.	.	.	.	.	.	16b\L	.
16c#\JJ	.	16a#X/JJ	.	.	.	.	.	.	.	16a#X\JJ	.
8d\L	6	16b/LL	.	.	.	.	.	.	.	8b\L	.
.	.	16g/J	.	.	.	.	.	.	.	.	.
16c#\L	.	8b/J	.	.	.	.	.	.	.	16cc\L	.
16B\JJ	.	.	.	.	.	.	.	.	.	16dd\JJ	.
=90	=90	=90	=90	=90	=90	=90	=90	=90	=90	=90	=90
2c#X\	7	8b/L	.	1ryy	1ryy	.	1ryy	1ryy	.	2ee\	.
.	6\	16a#X/L	.	.	.	.	.	.	.	.	.
.	.	16g/JJ	.	.	.	.	.	.	.	.	.
.	.	4a#/	.	.	.	.	.	.	.	.	.
8B\L	.	8b\	.	.	.	.	.	.	.	8dd\	-men
8B\	.	4b\	.	.	.	.	.	.	.	4b\	a-
8e\	.	.	.	.	.	.	.	.	.	.	.
8d\J	.	8b\	.	.	.	.	.	.	.	8b\	-men
*clefF4	*	*	*	*	*	*	*	*	*	*	*
*k[f#]	*	*	*	*	*	*	*	*	*	*	*
=91	=91	=91	=91	=91	=91	=91	=91	=91	=91	=91	=91
!	!	!LO:TX:a:t=P:problem=# above	!	!	!	!	!	!	!	!	!
*	*	*	*	*	*	*	*	*	*	*	*ij
4.A\	#	8cc#X\L	.	1ryy	1ryy	.	1ryy	1ryy	.	2a\	a-
.	4	8dd\	.	.	.	.	.	.	.	.	.
.	.	8dd\	.	.	.	.	.	.	.	.	.
8A\	#	8cc#\J	.	.	.	.	.	.	.	.	.
!LO:LB:g=original	!	!LO:LB:g=original	!	!	!	!	!	!	!	!	!
8F#\L	6	8dd\L	.	.	.	.	.	.	.	4a\	-men
*	*	*	*	*	*	*	*	*	*	*	*Xij
16E\L	.	8cc#X\	.	.	.	.	.	.	.	.	.
16D\JJ	.	.	.	.	.	.	.	.	.	.	.
8E\L	6	8cc#\	.	.	.	.	.	.	.	4r	.
8F#\J	.	8dd\J	.	.	.	.	.	.	.	.	.
=92	=92	=92	=92	=92	=92	=92	=92	=92	=92	=92	=92
8G\L	.	8b\L	.	1ryy	1ryy	.	1ryy	1ryy	.	1r	.
8E\	.	8ee\	.	.	.	.	.	.	.	.	.
8F#\	6	8a\	.	.	.	.	.	.	.	.	.
8D\J	.	[8dd\J	.	.	.	.	.	.	.	.	.
4.E\	7	8dd\L]	.	.	.	.	.	.	.	.	.
.	.	8g\J	.	.	.	.	.	.	.	.	.
.	6	8ccn\L	.	.	.	.	.	.	.	.	.
8F#\	.	16b\L	.	.	.	.	.	.	.	.	.
.	.	16a\JJ	.	.	.	.	.	.	.	.	.
=93	=93	=93	=93	=93	=93	=93	=93	=93	=93	=93	=93
!LO:TX:t=P:problem=mixed beam	!	!	!	!	!	!	!	!	!	!LO:SIC:v:l:s=et	!
8G\L	.	8b\L	.	1ryy	1ryy	.	1ryy	1ryy	.	4.dd\	&
8GG/J	.	8b\J	.	.	.	.	.	.	.	.	.
8r	.	8r	.	.	.	.	.	.	.	.	.
8G\	.	8b/	.	.	.	.	.	.	.	8dd\	in
!LO:TX:t=P:problem=mixed beam	!	!	!	!	!	!	!	!	!	!	!
8G\L	.	8b/L	.	.	.	.	.	.	.	8b\	sae-
8GG/	.	16a/L	.	.	.	.	.	.	.	16a\	-cu-
.	.	16g/JJ	.	.	.	.	.	.	.	16g\	-la
8D/	.	8a/L	.	.	.	.	.	.	.	8a\	sae-
8BB/J	6	8b/J	.	.	.	.	.	.	.	8b\	-cu-
=94	=94	=94	=94	=94	=94	=94	=94	=94	=94	=94	=94
8AA/L	.	8cc\L	.	1ryy	1ryy	.	1ryy	1ryy	.	8cc\L	-lo-
8D/	.	16b\L	.	.	.	.	.	.	.	16b\L	.
.	.	16a\JJ	.	.	.	.	.	.	.	16a\JJ	.
!	!	!	!	!	!	!	!	!	!	!LO:LB:g=original	!
8GG/	.	8b/L	.	.	.	.	.	.	.	8b\	.
8BB/J	.	16a/L	.	.	.	.	.	.	.	16a\LL	-rum
.	.	16g/JJ	.	.	.	.	.	.	.	16g\JJ	.
8C/L	6 5	2a/	.	.	.	.	.	.	.	2a\	a-
8AA/	.	.	.	.	.	.	.	.	.	.	.
8D/	.	.	.	.	.	.	.	.	.	.	.
8DD/J	.	.	.	.	.	.	.	.	.	.	.
=95	=95	=95	=95	=95	=95	=95	=95	=95	=95	=95	=95
!LO:TX:t=P:problem=mixed beam	!	!	!	!	!	!	!	!	!	!	!
8GG/L	.	8g/	.	1ryy	1ryy	.	1ryy	2ryy	.	8g\	-men
*	*	*	*	*	*	*	*	*	*	*	*ij
8G\	.	4cc\	.	.	.	.	.	.	.	4b\	a-
8G\	.	.	.	.	.	.	.	.	.	.	.
8Fn\J	.	8b\	.	.	.	.	.	.	.	8b\	-men
*	*	*	*	*	*	*	*	*	*	*	*Xij
8E\L	7 #	4.cc\	.	.	.	.	.	8g\L	a-	4.cc\	a-
16F\L	.	.	.	.	.	.	.	8f#\J	.	.	.
16G#X\JJ	.	.	.	.	.	.	.	.	.	.	.
[4A\	4	.	.	.	.	.	.	8e\L	.	.	.
.	3	8b\	.	.	.	.	.	16f#\L	.	8b\	.
.	.	.	.	.	.	.	.	16g\JJ	.	.	.
=96	=96	=96	=96	=96	=96	=96	=96	=96	=96	=96	=96
8A\L]	.	8a\L	.	1ryy	1ryy	.	1ryy	4.a\	.	8a\L	.
8G\	.	16b\L	.	.	.	.	.	.	.	16b\L	.
.	.	16cc\JJ	.	.	.	.	.	.	.	16cc\JJ	.
8F#\	.	4.dd\	.	.	.	.	.	.	.	4.dd\	.
8E\J	.	.	.	.	.	.	.	8g\	.	.	.
8D\L	.	.	.	.	.	.	.	8f#\L	.	.	.
16E\L	.	8cc\	.	.	.	.	.	16g\L	.	8cc\	.
16F#\JJ	.	.	.	.	.	.	.	16a\JJ	.	.	.
!LO:LB:g=original	!	!LO:LB:g=original	!	!	!	!	!	!	!	!	!
[4G\	.	8b/L	.	.	.	.	.	[4b\	.	8b\L	.
.	.	8a/J	.	.	.	.	.	.	.	8a\J	.
=97	=97	=97	=97	=97	=97	=97	=97	=97	=97	=97	=97
8G\L]	.	8g/L	.	1ryy	1ryy	.	1ryy	8b\L]	.	8g\L	.
8F#\J	.	16a/L	.	.	.	.	.	8a\J	.	16a\L	.
.	.	16b/JJ	.	.	.	.	.	.	.	16b\JJ	.
8E\L	6	2cc\	.	.	.	.	.	8g\	.	2cc\	.
16D\L	.	.	.	.	.	.	.	8a\	-men	.	.
16C\JJ	.	.	.	.	.	.	.	.	.	.	.
[2D\	7 3	.	.	.	.	.	.	4f#\	a-	.	.
.	6 4	4b\	.	.	.	.	.	[4g\	.	4b\	.
=98	=98	=98	=98	=98	=98	=98	=98	=98	=98	=98	=98
2D\]	5 4	2a/	.	1ryy	1ryy	.	1ryy	4g\]	.	2a\	.
.	x 3	.	.	.	.	.	.	4f#\	.	.	.
[2GG/|	.	4b/	.	.	.	.	.	4g\	-men	8b\	-men
.	.	.	.	.	.	.	.	.	.	8g\L	a-
.	.	16r	.	.	.	.	.	[4g\	a-	8a\	.
.	.	16g/LL	.	.	.	.	.	.	.	.	.
.	.	16g/	.	.	.	.	.	.	.	8b\J	.
.	.	16g/JJ	.	.	.	.	.	.	.	.	.
=99	=99	=99	=99	=99	=99	=99	=99	=99	=99	=99	=99
1GG_|	.	8g/L	.	1ryy	1ryy	.	1ryy	4g\]	.	8cc\L	.
.	.	8G/J	.	.	.	.	.	.	.	8dd\J	.
!	!	!LO:TX:t=P:problem=mixed beam	!	!	!	!	!	!	!	!LO:LB:g=original	!
.	.	16gg\LL	.	.	.	.	.	4g\	-men	4.ee\	.
.	.	16g/	.	.	.	.	.	.	.	.	.
.	.	16g/	.	.	.	.	.	.	.	.	.
.	.	16g/JJ	.	.	.	.	.	.	.	.	.
*	*	*	*	*	*	*	*	*	*ij	*	*
.	.	8g/L	.	.	.	.	.	4g\	a-	.	.
.	.	8b/J	.	.	.	.	.	.	.	16dd\LL	.
.	.	.	.	.	.	.	.	.	.	16cc\JJ	.
.	.	8b\L	.	.	.	.	.	4b\	-men	4dd\	.
*	*	*	*	*	*	*	*	*	*Xij	*	*
.	.	8dd\J	.	.	.	.	.	.	.	.	.
=100	=100	=100	=100	=100	=100	=100	=100	=100	=100	=100	=100
2GG/]	.	2cc\	.	1ryy	1ryy	.	1ryy	4g\	a-	2cc\	.
.	.	.	.	.	.	.	.	4f#\	.	.	.
*	*	*	*	*	*	*	*	*2\right	*	*	*
2GG/	.	2b/	.	.	.	.	.	2g\	-men	2b\	-men.
==	==	==	==	==	==	==	==	==	==	==	==
*-	*-	*-	*-	*-	*-	*-	*-	*-	*-	*-	*-
!!!system-decoration: [g1][g2]s7
!!!RDF**kern: < =below
!!!RDF**kern: | = vertical stroke
!!!ENC: Marta Lawrence
!!!END: 2021-01-01
!!!ENC: Marta Chmielewska
!!!END: 2020-07-03
!!!YEC: Copyright 2022 Narodowy Instytut Fryderyka Chopina (https://polishscores.org)
!!!YEM: Licence CC BY 4.0 (https://creativecommons.org/licenses/by/4.0)
